/* XPM */
static char *result[] = {
/* columns rows colors chars-per-pixel */
"45 45 92 1 ",
"  c gray1",
". c #0C0C0C",
"X c #0C140C",
"o c #0E1B0D",
"O c #131B0D",
"+ c gray8",
"@ c #131B12",
"# c #191C16",
"$ c #1C1C1C",
"% c #142312",
"& c #1C231C",
"* c #1D3619",
"= c #173919",
"- c #1B3D1B",
"; c #2F2E18",
": c #23351C",
"> c #2A3319",
", c #243B1C",
"< c #293E1C",
"1 c #1F2C20",
"2 c gray14",
"3 c #252B23",
"4 c #2A2E27",
"5 c #2C2C2C",
"6 c #263225",
"7 c #283327",
"8 c #253C22",
"9 c #293927",
"0 c #2B342B",
"q c #2E3B2D",
"w c #303927",
"e c #31352B",
"r c #333C29",
"t c #333333",
"y c #373B35",
"u c #3A3A3A",
"i c #1F411D",
"p c #22441E",
"a c #25491F",
"s c #254720",
"d c #294622",
"f c #264A20",
"g c #294D21",
"h c #304321",
"j c #35432B",
"k c #39472E",
"l c #334D29",
"z c #3B4C2F",
"x c #2D5223",
"c c #315525",
"v c #335926",
"b c #355529",
"n c #3A522B",
"m c #365C28",
"M c #3A5D2B",
"N c #364330",
"B c #3C4334",
"V c #3D4C31",
"C c #3C632A",
"Z c #42562D",
"A c #41592E",
"S c #414C36",
"D c #445335",
"F c #455B33",
"G c #4B5C3A",
"H c #43662E",
"J c #436A2E",
"K c #446630",
"L c #4C6435",
"P c #466B31",
"I c #4B6D33",
"U c #4E6539",
"Y c #506837",
"T c #53673D",
"R c #546D3B",
"E c #4C7333",
"W c #517537",
"Q c #527936",
"! c #56743B",
"~ c #5B763E",
"^ c #567B39",
"/ c #5B7D3C",
"( c gray25",
") c #5E7840",
"_ c #578038",
"` c #5C823B",
"' c #62833F",
"] c #61883E",
"[ c #648241",
"{ c #658B41",
"} c #698D43",
"| c #6C9444",
/* pixels */
"55$+2reyt5 5.$$ 25t+t ttt$$5$tt2$.+ y2+u8qyut",
"t5.r~]r$25 5.5tt5tt$t+t552$t+t$$+$++ 2+Ndd833",
"t4z/{^Ot55.2y$5tttt5t$ttu552252$tt tttt!JbbCW",
"#M^^Jg22yt22tttt5utu5tt.+t55ttu5.+uuu5+CPCmFG",
"nQEvp-4tt552+$+2t y(t2uut5tt5uuu.5ytu$$xCEQQI",
"kKCxp-&+5u.ttttut tut+ttt..uttt2+$5tt+ ixCE_{",
"FWJxs-X$tt+ttutu$ tuu.tty5+t2t$ ++$2tt.sfCPE!",
"jWEvp=@t5t $$$222 ttt t$t25t5ty555+2 u iixC^`",
"yRPcs=Xt55 tt25ttutttut+uutt2u5$5t52ut -iiC`|",
"ernxsi0555 2$5tt5utut2$5tytttuu2 u5ttt iigCP|",
"yMMg--@5t5 t.55tt25(tt22 ttttut t5+utt.-ifC__",
"L`Jxs*4255 tuttttutuu25t2 5t5utttttttt =ixE{U",
"TWHcspet55 t22$22 u5u2.$$t555tt5tyt5uy =igC_U",
"#nJcp>4555 t5ttttttt5yt5u.+ttt5t(t2+tu 8axCE^",
"7ZKcp*7 tt.222tytut 5tt$t2uuutttt.u+5u ==fC^B",
"lMMxa,7 tt 55tuu5u5 5t55ttut5t +$. uut iifCCR",
"Vnxxii355t.t5.ttut$ tut5t2+t2ttttuutt2 -sxCQ|",
"tFJxi-4t5t 2$2255t2 tt5tt25t2u+tutt.2u.=ixC[}",
"VKCcaaq5tu.52+225t5 tuuuu$ut5t$$$u+ttt =igPIG",
"BIHcp,$$5t225t52  5 yt5ttuut5t+uut ttu isxCE[",
"VLIbs:e52tttytt5tt5 tu.522$2uu+ tu u55 -igPIB",
"R^Cxi-05tt5$$2t5t55.tuttt ttt5.5+t.utu -=sM)~",
"Gzgcs-45t5$522225tt+5t55t$ttt2 t2u.t y.-pxc<)",
"G)Kg-=62tt52$222555 t5ttttttt2utu+.++t =-fvE}",
"rLJcp-65t55$52 25 5.$5ttu22t552 .$++ t >,xJRZ",
"YQJvgp7t5t225tttt25ttt$ttttt5t5t$5u5t5 >pgCWD",
"SUIcp=6t55$5tt$ttt5.tt . ut5tt22+$ 5t2 spxCJF",
"L[Ics-6$5$+555.u$tt2ttt5t555tt+t5++2t5t--fJUt",
"!`Jcfi05t2.5555tyt2 u5tut 5uy2+5ut2 .4 i-gxcF",
"DPCxii7252.5t5.5tt2$5t55t ttutt5t5tttt2-pxvMM",
"qUPci-o252 t522 5t25tt$222$2tt 2$+.  t2*pxHL7",
"FEJvf83555.255.$5 yututtt5utt2+5t5tt5t3;,gJL.",
"z^Ixp-15$5+t5ttt5.2555ttttt5t2u t525uu+-sxME)",
"V/^Ms-6551+t$tt55t5255+ .tttt2$2$$52.t28igC``",
"K_Evs-o$5225$25555$ 5$++$255tt+5$  2 tu-=sMCB",
"Y^Cxs-%$+522555ttt5255225t+tt2+ $$+55t5ipxvN5",
"U]Exi-%4522+5552 55t5 2+t5t2tt+.t25tt25=igC)B",
"K^Jvai32t25 +522 552t ttt2 25ut5255t25>=ixE`V",
"DEICxpO2525 +.t5 5225t555222525 52 t22t-pfCWI",
"L`WJcao#2$2.2+25 552t55+5t 2tt2$22 5+55-igCPz",
"nWQEPv%2222.555t 5555.525555225$52 .555=ixP^J",
"wGMCKC:2522.522$$5225252.$255 5 52 .2 5pCQ`I@",
"hPmmCEV $225+..2$ 2$5t55tt552 2t5#22555Q{{F3t",
"#46ssj0$5$2222+2$522t$.525555$5 5$55 tt|'D 5t",
"$tyy7t052$+$.$$22t22$2 +  2$5 2 5+$t+55r4.+5t"
};
