/* XPM */
static char *result[] = {
/* columns rows colors chars-per-pixel */
"45 45 92 1 ",
"  c gray1",
". c #0C0C0C",
"X c #0C140C",
"o c #0E1B0D",
"O c #131B0D",
"+ c gray8",
"@ c #131B12",
"# c #191C16",
"$ c #1C1C1C",
"% c #142312",
"& c #1C231C",
"* c #1D3619",
"= c #173919",
"- c #1B3D1B",
"; c #2F2E18",
": c #23351C",
"> c #2A3319",
", c #243B1C",
"< c #293E1C",
"1 c #1F2C20",
"2 c gray14",
"3 c #252B23",
"4 c #2A2E27",
"5 c #2C2C2C",
"6 c #263225",
"7 c #283327",
"8 c #253C22",
"9 c #293927",
"0 c #2B342B",
"q c #2E3B2D",
"w c #303927",
"e c #31352B",
"r c #333C29",
"t c #333333",
"y c #373B35",
"u c #3A3A3A",
"i c #1F411D",
"p c #22441E",
"a c #25491F",
"s c #254720",
"d c #294622",
"f c #264A20",
"g c #294D21",
"h c #304321",
"j c #35432B",
"k c #39472E",
"l c #334D29",
"z c #3B4C2F",
"x c #2D5223",
"c c #315525",
"v c #335926",
"b c #355529",
"n c #3A522B",
"m c #365C28",
"M c #3A5D2B",
"N c #364330",
"B c #3C4334",
"V c #3D4C31",
"C c #3C632A",
"Z c #42562D",
"A c #41592E",
"S c #414C36",
"D c #445335",
"F c #455B33",
"G c #4B5C3A",
"H c #43662E",
"J c #436A2E",
"K c #446630",
"L c #4C6435",
"P c #466B31",
"I c #4B6D33",
"U c #4E6539",
"Y c #506837",
"T c #53673D",
"R c #546D3B",
"E c #4C7333",
"W c #517537",
"Q c #527936",
"! c #56743B",
"~ c #5B763E",
"^ c #567B39",
"/ c #5B7D3C",
"( c gray25",
") c #5E7840",
"_ c #578038",
"` c #5C823B",
"' c #62833F",
"] c #61883E",
"[ c #648241",
"{ c #658B41",
"} c #698D43",
"| c #6C9444",
/* pixels */
"t3WGI{!`||`IU_BR|}G[B)){ADFtFm6.)`B5BzIzJ@ttt",
"u3CFQ^EQ`C`{`E^CQ[IEI),ERWKIbMLLE`CN)`QK_I355",
"y:mMQEPCCvKECCCvCCPCPMcMKCCJxmJJMCMmCECCP`F +",
"qsvCECCxsxgxgxgfxxfxfsxfxgxfaxxaxfsxfxggxW{D.",
"9dJKJggp=iiiis--siifi=i-,ia-ipi,si=p-ppppC]'4",
"uN^Cxiii-i-==9-i-==i---=>>pii-*;p:-p===-=pW|j",
"++t+$ .   .      .    .    t 223+2u55>t5555t5",
"22t5$+tuttttyuut2utu5uytt5255tttuttt25255 5t5",
"y tuutt utttut5ut2tt5t + ttt.t 5u. 5t22+525 +",
" +tutt222tut5++ut.ttuut++552 t t5225ttt5..25t",
"++ uy5$+55+tt2u ut+  ...+u +2t.t25 +55    25$",
".$t+5$+5tu5tyt..utututu+$5$+t5+55$ $252222$$+",
"$+t..++55 ttt(t$tu$ut+2u.$+5ut$tt$$$t25255555",
"2$$5u2 5$2 t5tt+tt$u 5tt t2t5525 25 .5 $$ t  ",
"t$2uyt$y5uttt5t t+$++. u252++t +u$+++t5255252",
"tt5tutttuuuutttttuttu5225ttt2tt222t2tu2t2  $ ",
"$+2t5t252tt55tu52255uttt55ttyuttttttt55t25255",
"5t25tutttttt5tuttttt2ttttt55ut2t5t5t22225555$",
"$$55t.+5ttt55+uu+5uu$ttt2tt55t$utt5+t 2 52552",
"$25t5.52uyt t.2t22$u2 $t2tu5  25tt2t522t5$t5 ",
"t5u+ttytut 2$uttttut2tttut ttt2tt.$5tt555.t2 ",
"t5t.utt$+52t$5$55tut5t5ttt.5y52tt +2+t5+2255+",
"ttttutttt$25.tt5t5u5.t5tt$ tt5$tt++22t55555. ",
" +$t2+. u2t22yttututuut55ttt5ttu55$5  t5.2t$2",
"ttt5ttuttttuu555tttytt5t$tttu5tt55555t5t555t$",
"+$5u(uuttu(u5t       .+ .t.2 $5u52 2t22252$22",
"ttttyttttt5tutt5$25555t5555t222y25$5552552222",
"5ttu    uu2u tuuttt t5t5 2ttttt .t5t555555 5t",
"25t5tt$2t5tt2tt5y55 tt555tt$yt55555t     $$$2",
" ttt2uu2tttt2tuut52255222ttyt5 $t55t2255t$222",
"$t5t+tt25t5t$ttut225tt22 t$.5.2.tt5552t252.+$",
"$5$t$tu$255t2t2t.2+tt2222tt55525tt2555.+52.2$",
"..yt+tt$t$.u25255$25y$2$55t55t555$$55++255+2.",
"55222tt$t2tttt25t252t$52$25555t2tt52+  ...52$",
"  .25.+       . . .2t5$552$+.. .++2225522222+",
"555t5utt555555ttttuttt5t5t5$22255225222$222$$",
"t25yt5t555t555tt55t52tttt555t555$55+5t5225$52",
"t$t2t+$tt552t5  5t5$55525tt$522555$$522+22 $5",
"tr@34&X@X0@4q54737r#e077676600o316o%@1@o%*V05",
"r}^g=---=s-:p>--i-s>:----p=--i-8=--i-isamCEly",
";~]Japppis-sfsssiifspia*igiafiifaiaaiaccKKCd9",
".j'^vxxvxxgxcxcxxxvxvxcgvvvvvgvvxCccxvCJECmpr",
"$.z^IHJEKbMKHJKMcKCHLCgKPCIPJCPKP^ECPJEWQMM6y",
"553AQHWQRNM/WzAMnFKII^z~LQL]`KUQ^`_^]_W`EGK7u",
"5t5$nkAky5yLT#6lztVBVRGUyUVU!DeFzzFRYFFFzed#$"
};
