/* XPM */
static char *result[] = {
/* columns rows colors chars-per-pixel */
"45 45 98 2 ",
"   c gray1",
".  c #0C0C0C",
"X  c #0C160C",
"o  c #0D190C",
"O  c #11140F",
"+  c #141414",
"@  c #121B12",
"#  c #1A1C16",
"$  c #1C1C1C",
"%  c #142214",
"&  c #1A2217",
"*  c #1C241B",
"=  c #1D2B1C",
"-  c #1D3619",
";  c #173919",
":  c #1B3D1B",
">  c #2F2E18",
",  c #26361B",
"<  c #2B3319",
"1  c #243A1C",
"2  c #293E1C",
"3  c #1F2C20",
"4  c #242424",
"5  c #232B22",
"6  c #292D26",
"7  c #2C2C2C",
"8  c #253225",
"9  c #283327",
"0  c #253C22",
"q  c #293927",
"w  c #2B352B",
"e  c #2D392B",
"r  c #31352B",
"t  c #333C2B",
"y  c #333333",
"u  c #353B34",
"i  c #3A3F34",
"p  c #3A3A3A",
"a  c #1F411D",
"s  c #23441E",
"d  c #25491F",
"f  c #254720",
"g  c #284721",
"h  c #264A21",
"j  c #2A4D22",
"k  c #344525",
"l  c #364F24",
"z  c #35442B",
"x  c #39452D",
"c  c #344E2A",
"v  c #3A4B2E",
"b  c #2D5323",
"n  c #315625",
"m  c #335926",
"M  c #36552A",
"N  c #3B532A",
"B  c #375D28",
"V  c #3A5C2B",
"C  c #354230",
"Z  c #3B4333",
"A  c #3D4B32",
"S  c #3D632B",
"D  c #41562C",
"F  c #41592E",
"G  c #424E36",
"H  c #434E38",
"J  c #435235",
"K  c #455B34",
"L  c #4A5D36",
"P  c #475D38",
"I  c #4C5D39",
"U  c #43652E",
"Y  c #43692E",
"T  c #446531",
"R  c #4C6435",
"E  c #466A30",
"W  c #4A6C33",
"Q  c #4D6439",
"!  c #506936",
"~  c #52673B",
"^  c #546D3B",
"/  c #4C7434",
"(  c #517537",
")  c #527936",
"_  c #55743A",
"`  c #5B763D",
"'  c #557B39",
"]  c #5B7D3D",
"[  c gray25",
"{  c #5E7840",
"}  c #578038",
"|  c #5C823B",
" . c #62833F",
".. c #61883E",
"X. c #648341",
"o. c #658B41",
"O. c #698E43",
"+. c #6C9444",
/* pixels */
"y 7 $ + 5 t ! | +.+.} Q Q } C _ +.O.P X.Z { ` O.N J K y K B 8 . { | Z 7 Z A ! A S @ y y y ",
"y 7 . z ` O.) ) | E } o.| / ( S ( X.W / / { 2 / ^ _ E / M B R R / | S C { | P e q u u u 7 ",
"y 6 v | ..' W S S m E / S S S S S S E S S S c B E S S S b m U Y V S V m S / M z f f 8 6 < ",
"* F ' ' Y d B b f b h b j b h h b b h b h f b j b j b f h b b h b j f b h b S / S m B E k ",
"V ) W m d : d s ; : a a a f : : f a a f a ; a : 1 s s : a a s 1 f a ; a a a b S U S V P A ",
"A T S b s : 1 s : f : ; ; q : : : ; ; a a : : ; < < g : a : - < a 1 : f ; ; s m E / ) ) K ",
"N ( Y b f : o       .             .         .         y   4 4 5 + 4 p 7 7 < q f b Y ) | Q ",
"z ' / m s : w p y y y y u p p y 4 p y p 7 p u y y 7 4 7 7 y y y p y y y 4 7 8 s m S E ( J ",
"Z ^ Y b s : w   p y y y p y 7 p y 4 y y 7 y   +   y y y . y   7 p .   7 y 4 8 a d m Y ' F ",
"4 i M b s a 5 4 4 y p y 7 + + p y . y y p p y + + 7 7 4   y   y 7 4 4 7 y y e ; a n W ..^ ",
"r V V j : : * + 7 7 + y y 4 p   p y +     . . . + p   + 4 y . y 4 7   + 7 7 o a d b S ) ! ",
"K | Y b s 1 # 7 y p 7 y u y . . p y p y p y p + $ 7 $ + y 7 + 7 7 $   $ 4 7 5 a d m / } N ",
"R ( U n d s & 7 7   y y y [ y $ y p $ p y + 4 p . $ + 7 p y $ y y $ $ $ y 4 8 : d S ) ' G ",
"+ N U n s < . 7 $ 4   y 7 y y + y y $ p   7 y y   y 4 y 7 7 4 7   4 7   . 7 X : s b W ' k ",
"9 F T m s : * i 7 p y y y 7 y   y + $ + + .   p 4 7 4 + + y   + p $ + + + y w 0 h m Y ) F ",
"c V V n s 1 w y p p p p y y y y y p y y p 7 4 4 7 y y y 4 y y 4 4 4 y 4 y u 5 : a b W R 6 ",
"v M b j a a 5 7 4 y y 7 7 y p 7 4 4 7 7 p y y y 7 7 y y u p y y y y y y y 7 q : a b B E K ",
"y K E b a : e y y y y y 7 y p y y y y y 4 y y y y y 7 7 p y 4 y 7 y 7 y 4 4 5 : h m E | ! ",
"x T S m h f & 7 y y y 7 7 + p p + 7 p p $ y y y 4 y y 7 7 y $ p y y 7 + y   5 : d m E X.! ",
"Z W Y n s , 6 4 p u y   y . 4 y 4 4 $ p 4   $ y 4 y p 7     4 7 y y 4 y 7 4 3 : s m E Q t ",
"A Q W m f , y y p y   4 $ p y y y y p y 4 y y y p y   y y y 4 y y . $ 7 y y w s h m Y ( D ",
"^ ' S b a : w $ + 7 4 y $ 7 $ 7 7 y p y 7 y 7 y y y . 7 u 7 4 y y   + 4 + y 8 : s m E K r ",
"Q N k b f : w y y $ 4 7 . y y 7 y 7 p 7 . y 7 y y $   y y 7 $ y y + + 4 4 y 8 : a b U ` N ",
"v ` U b : : @   p 4 y 4 4 p y y p y p y p p y 7 7 y y y 7 y y p 7 7 # 7     w : s b j N L ",
"i R Y n s a t y y y y p p 7 7 7 y y y p y y 7 y $ y y y p 7 y y 7 7 7 7 7 y 6 : s b S ' ~ ",
"F ( Y m d s t y y p [ p 7 y               . +   . y . 4   $ 7 p 7 4   4 y 4 5 < s n W Q x ",
"H Q W m f ; w y y y 7 y p y y 7 $ 4 7 7 7 7 y 7 7 7 7 y 4 4 4 u 4 7 $ 7 7 7 4 2 s n U W x ",
"^ X.W m f ; X   p p 4 p   y p p y y y   y 7 y 7   4 y y y y y   . y 7 y 7 7 9 s g n U T G ",
"_ | E n h a = 4 y 7 y y 4 y y 7 u 7 7   y y 7 7 7 y y $ p y 7 7 7 7 7 y     X : a b Y K 7 ",
"x S S b a a t 4 y y y y 4 y u p y 7 4 4 7 7 4 4 4 y y u y 7   $ y 7 7 y 4 4 9 s s j b M A ",
"e Q / n a : w 3 7 y 7 y $ y y p y 4 4 7 y y 4 4   y $ . 7 . 4 . y y 7 7 7 4 w : s b V V j ",
"V ( S m h 0 y $ 4 7 7 y 4 y 4 y . 4 + y y 4 4 4 4 y y 7 7 7 4 7 y y 4 7 7 7 O : h m T F 5 ",
"x ' / b s ; w $ y $ . p 4 7 4 7 7 $ 4 7 u $ 4 $ 7 7 y 7 7 y 7 7 7 $ $ 7 7 + # > s b E c O ",
"A { ) S f : q $ y 4 y y y y 4 7 y 4 7 4 y $ 7 4 $ 4 7 7 7 7 y 4 y y 7 4 +   X f h b S ( I ",
"n } / b f : &               .   .   . 4 y 7 $ 7 7 4 $ + . .   . + + 4 4 4 7 7 : f b Y ] R ",
"^ ) S n h a q y 7 7 7 7 7 7 y y y y p y y y 7 y 7 y 7 $ 4 4 4 7 7 4 4 7 4 4 5 : : j V V t ",
"^ ../ b : : q 7 7 7 y 7 7 7 y y 7 7 y 7 4 y y y y 7 7 7 y 7 7 7 $ 7 7 + 7 y w a f b M C 7 ",
"Q ' Y m d a = y y 7 7 4 y 7     7 y 7 $ 7 7 7 4 7 y y $ 7 4 4 7 7 7 $ $ 7 4 5 ; f b E ^ u ",
"J ) / V j s % @ O w O 8 r 7 6 8 5 9 w # r w 9 9 8 8 8 8 w w X 5 3 8 o % @ 8 % ; f B ) R i ",
"t +.' h : : a ; : a ; 0 f < : : 1 : h , , : : : : f : : : a : 0 : : : a ; a f d m S / k r ",
"4 ` ..Y s s s s a f : f h s f f a a h f s s f : a j d d h a a g d a d d a h b m E T S g q ",
"O z  .' m b b m b b j b b b n n j b n b m b b j n n n m m b m n b S m b b m S S / S m s t ",
"$ . v ' / S Y / E M V E S U T V b E U E T S k U W S E W Y S W Y E ) / S W Y / ) ) V V 8 p ",
"7 7 6 F ) T ( _ ^ C V ] ( N F V M K T W ^ ) N ` R ) R X.| U Q / ' | } ) ..} ( | / P E 9 y ",
"r y y * V v K z i 7 t Q ~ $ 8 c v y A Z A ^ I Q C Q A Q ^ L r K A A T ^ ! K L o.( A k 7 y "
};
