/* XPM */
static char *result[] = {
/* columns rows colors chars-per-pixel */
"45 52 216 2 ",
"   c #101315",
".  c #040404",
"X  c #070908",
"o  c gray8",
"O  c #222423",
"+  c #1B1D1C",
"@  c #2A2D2C",
"#  c #262A2A",
"$  c #161919",
"%  c #0B0C0C",
"&  c #363737",
"*  c #414545",
"=  c #353A3B",
"-  c #393C3D",
";  c #313534",
":  c #515556",
">  c #494D4E",
",  c #2E3333",
"<  c #3D4243",
"1  c #3B3F41",
"2  c #5B5D5D",
"3  c #3B403F",
"4  c #666969",
"5  c #4C5253",
"6  c #424748",
"7  c #6B6D6D",
"8  c #545859",
"9  c #444A4B",
"0  c #687678",
"q  c #1D201F",
"w  c #4A4F50",
"e  c #1E2120",
"r  c #3A4546",
"t  c #4F6166",
"y  c #6F8589",
"u  c #89A5AA",
"i  c #96B2B7",
"p  c #A4C4C9",
"a  c #9FBEC4",
"s  c #93ACAE",
"d  c #74898B",
"f  c #515E60",
"g  c #92ADB2",
"h  c #AFD1D7",
"j  c #A6C7CC",
"k  c #878888",
"l  c #797B78",
"z  c #676864",
"x  c #625F5C",
"c  c #636362",
"v  c #627274",
"b  c #738F94",
"n  c #465658",
"m  c #2C3030",
"M  c #A68D75",
"N  c #B86C33",
"B  c #B85716",
"V  c #BC520F",
"C  c #C5580E",
"Z  c #AF5411",
"A  c #944813",
"S  c #593A1C",
"D  c #819A9F",
"F  c #586C71",
"G  c #76817D",
"H  c #92572A",
"J  c #D66313",
"K  c #E66613",
"L  c #E76A15",
"P  c #672509",
"I  c #881003",
"U  c #8CB4BC",
"Y  c #D55F10",
"T  c #AC1904",
"R  c #D01304",
"E  c #B50F03",
"W  c #551612",
"Q  c #7EA2A9",
"!  c #77949A",
"~  c #643717",
"^  c #E97B26",
"/  c #795C39",
"(  c #EC9746",
")  c #EB933F",
"_  c #EA8A37",
"`  c #C46F24",
"'  c #C50F03",
"]  c #701407",
"[  c #4E1208",
"{  c #4D372D",
"}  c #4C342A",
"|  c #F0A14F",
" . c #706852",
".. c #2B6162",
"X. c #CC9249",
"o. c #E8A456",
"O. c #A72B05",
"+. c #422C14",
"@. c #51491B",
"#. c #543B0D",
"$. c #833D12",
"%. c #5D7275",
"&. c #98602C",
"*. c #A97D48",
"=. c #9B7548",
"-. c #AD763F",
";. c #753014",
":. c #9F2507",
">. c #370706",
",. c #B9B977",
"<. c #818439",
"1. c #5D3D2B",
"2. c #85ADB5",
"3. c #6A350F",
"4. c #71502E",
"5. c #EEAB5B",
"6. c #D19857",
"7. c #573418",
"8. c #4D4536",
"9. c #8D7051",
"0. c #E2E49C",
"q. c #87855C",
"w. c #815324",
"e. c #E5731C",
"r. c #964A12",
"t. c #26272A",
"y. c #251B12",
"u. c #473419",
"i. c #3C2613",
"p. c #542914",
"a. c #966939",
"s. c #F2B165",
"d. c #DDA867",
"f. c #84653D",
"g. c #B2AE79",
"h. c #BAB981",
"j. c #7A633E",
"k. c #DBA15C",
"l. c #C86419",
"z. c #564A36",
"x. c #8EB8C1",
"c. c #8D9266",
"v. c #E7AD67",
"b. c #E5AC6A",
"n. c #F0B46C",
"m. c #EEB46C",
"M. c #BF9560",
"N. c #9A7A50",
"B. c #AA865A",
"V. c #ECAE63",
"C. c #E9812A",
"Z. c #78410E",
"A. c #7A765A",
"S. c #EDB166",
"D. c #CA975B",
"F. c #C89A64",
"G. c #F2B973",
"H. c #F1BC7C",
"J. c #EBB575",
"K. c #F1B773",
"L. c #694723",
"P. c #B68A57",
"I. c #AF8957",
"U. c #F1BE81",
"Y. c #DB721F",
"T. c #566769",
"R. c #52280A",
"E. c #DBAC72",
"W. c #D2A36A",
"Q. c #F2C184",
"!. c #EFBA7C",
"~. c #F0AA5C",
"^. c #7A9AA0",
"/. c #482B17",
"(. c #DE7B2A",
"). c #C55A12",
"_. c #595248",
"`. c #EEA14F",
"'. c #2C1206",
"]. c #F09F51",
"[. c #3B1D0C",
"{. c #17110B",
"}. c #342214",
"|. c #1B130B",
" X c #75370D",
".X c #A84E13",
"XX c #65421F",
"oX c #824717",
"OX c #4A2B0D",
"+X c #312116",
"@X c #281B16",
"#X c #6C8C93",
"$X c #4A4B44",
"%X c #63706F",
"&X c #AE601D",
"*X c #190B05",
"=X c #A4A4A4",
"-X c #27180B",
";X c #140904",
":X c #37261A",
">X c #41230D",
",X c #A8670B",
"<X c #9A480B",
"1X c #1A1817",
"2X c #323C40",
"3X c #637A80",
"4X c #866C49",
"5X c #8F5815",
"6X c #849BA0",
"7X c #3E332A",
"8X c #341D14",
"9X c #0B0503",
"0X c #553626",
"qX c #4A2F21",
"wX c #341405",
"eX c #260C04",
/* pixels */
"                                                . . X .                                   ",
"                                          o O + + O @ # O $ %                             ",
"                                      + & * @ @ = - = = ; ; @ + %                         ",
"                                  o * : > , , < 1 - - = = ; ; , @ $ .                     ",
"                                @ 2 : > - ; < < < 1 - - = = ; ; , , O X                   ",
"                            . 3 4 5 6 5 , * * < < < 1 - - = & ; , , , + .                 ",
"                          . 6 7 > 6 8 < < 6 6 * < < < 1 - = = ; ; , , # $ .               ",
"                          < 7 > 9 > 2 = 9 9 9 6 * < < < - - = = ; , , O O $               ",
"                        @ 0 5 9 > 8 > < > > 9 9 6 * < < 1 - = = ; , , + q @ %             ",
"                      o 4 8 9 > w 2 * 9 5 > > 9 6 * < < 1 - = = ; ; @ $ q # O             ",
"                      * 7 9 > w 5 2 1 5 5 w > 9 9 * * < < - - = ; ; # o e e ; %           ",
"                    o 4 5 9 > 5 5 8 < 5 5 5 > 9 9 6 * < < - - = ; ; @ + e q ; O           ",
"                    & 4 6 9 > 5 5 5 9 : 5 5 > 9 9 6 * < < - - = ; ; # e e q # ;           ",
"                    : : 6 9 > w 5 > > 5 5 > 9 6 * * < < < - = = ; , e e e e O & %         ",
"                  o 2 9 6 9 > > > 6 1 1 < < 6 6 r < = ; & - = = ; # q e e e e & $         ",
"                  O 2 * 6 9 9 < < t y u i p p p p a s d 8 , , ; O e e e e e q ; O         ",
"                  @ : < * 6 - f g h j s k l z x c v b i j s n + $ e e e e e q m #         ",
"                  @ > < < = v j i M N B V C C C V Z A S * D p n + e e e e e q @ #         ",
"                  @ * < = F p G H J K K K K K L L L C P I P 0 U r + e e e e q @ #         ",
"                  O < = 9 a 0 A K K K Y J L L K K V P T R E W b Q # + e e e q @ #         ",
"                  $ = ; ! ! ~ Y K K ^ / / ( ) _ ` P T ' I ] [ { U F + e e e q # O         ",
"                  % @ 6 i } I P Z _ |  ...X.o.X.~ O.T [ +.@.#.$.%.U , q e e q # +         ",
"                    e v y [ ' E P &.X.*.=.-.;.;.:.] >.} ,.<.#.C 1.2.F + e e q # $         ",
"                    o y t >.] I :.;.3.4.5.6.;.] 7.8.W 9.0.q.w.e.r.%.2.# + e e t.          ",
"                    . %.F y.u.i.>.p.W a.s.s.d.f. .,.g.h.q.j.k.( l.z.x.n + e e +           ",
"                      n y + u.@.1.c.z.6.v.b.n.m.M.N.9.z.B.b.m.V.C.Z.! b e q q o           ",
"                      = D O 7.4.q.A.f.S.D.F.G.H.H.H.J.B.d.K.n.n.( B 4 U = + $             ",
"                        d < 3.N / L.k.P.I.b.H.H.H.U.U.J.J.K.n.n.5.Y.4.x.T.+ o             ",
"                        f T.R._ o.*.d.N.E.W.J.U.Q.Q.U.H.!.J.m.S.~.^ r.^.! +               ",
"                          F /.(.5.k.V.P.*.F.!.!.E.F.M.W.J.n.m.V.) e.).l 2.,               ",
"                          n 8.l.~.V.S.n.m.K.E.I.B.F.F.D.b.n.5._ e.L V _.!                 ",
"                            - $._ 5.V.S.S.v.P.W.!.K.K.m.S.`.C.e.J $.'.e                   ",
"                              y.r.C.| ~.S.v.v.n.S.n.V.]._ e.l.A [.% % X .                 ",
"    {.}.                      % |. XB (.( ].| ].( _ (.l..X3.}.O $ o ; , + %               ",
"    |.XXu.{..                       '.R. XA r.r.oX3.OX+X+ # = < ; $ O < ; O $ X           ",
"        @X@X}.|.                              . + O @ 1 , < * 9 6 , O o $ = = + +         ",
"  o O o $ {.S L.i.                            . @ , ; * ; < 9 > w = ; e . # < r #X$X      ",
"  O ; @ & @   +.L.S y.                        . ; , ; < & < 9 > 5 < , @ % . w u %X-.&X[.  ",
"  @ ; ; k l       7.L./.*X                    X ; , ; - & - 6 > 5 * @ O {.. 5 A.M.!.( r.  ",
"$ ; @ * =X2         }.L.XX}.                  o , @ ; & ; , < * 1 ; @X-X-X;X  P.H.H.| Z *X",
"$ & * 7 =X@             u.L.7.{.            + t.# # m # 7.Z.+.:X/.p.>X-X{.X   z.W.5.` R.  ",
"@ 2 c k k                 -XS ~ i.        < y 3 -X}.+Xi.,X<X<X>X>Xy.1X$ 2Xt     S oX>X    ",
"@ 4 c k 9.                    i.XXS O $ 9.I.A.& [././.OX,X<X,Xy.q # r 3Xu #X              ",
"  > 6 7 G                         i.x _.4XN.6.oX|.o o o #.5X+.< 0 6Xs 0 ,                 ",
"  ; 2 7 k                           O 4.4X ./ H $XF T.%.0 e . v u T.7X8X|.                ",
"    > > l *                           [.&.a.H OX- v v 0 %X1X    :X/./.i.-X9X              ",
"    o ; > c                             [.~ 7.7X7X0X0X0XqX}.    :X0X1.1.0X8X              ",
"      o @ > -                                 + y.+.0X1./.8X    :X0X1.0X8X*X              ",
"          + & O                                 *XwXwXwXeX;X    ;XwXwXwXeX;X              ",
"            % o .                             9X'.wXwX'.eX;X. 9X'.wXwX'.eX;X              ",
"                                              . 9X;X;X;X;X9X  9X*X*X*X;X9X.               ",
"                                                                  .                       "
};
