/* XPM */
static char *result[] = {
/* columns rows colors chars-per-pixel */
"45 45 111 2 ",
"   c #0B0B0B",
".  c #0B0C0B",
"X  c #0C0C0B",
"o  c #0C0C0C",
"O  c #0C0D0C",
"+  c gray8",
"@  c #141514",
"#  c #151514",
"$  c #151515",
"%  c #161615",
"&  c #1B1B1B",
"*  c #1C1C1B",
"=  c gray11",
"-  c #1B2019",
";  c #1E3B21",
":  c #222222",
">  c #282828",
",  c gray16",
"<  c #292A29",
"1  c #2A2E28",
"2  c #2A2F28",
"3  c #2F2F2F",
"4  c #2D3620",
"5  c #2D3621",
"6  c #233820",
"7  c #213F22",
"8  c #273925",
"9  c #283F23",
"0  c #2F322C",
"q  c #2B3829",
"w  c #323120",
"e  c gray19",
"r  c #303130",
"t  c #353535",
"y  c #353635",
"u  c gray21",
"i  c #363736",
"p  c #313E30",
"a  c #393C38",
"s  c #3A3D39",
"d  c #3C3C3C",
"f  c #3D3D3C",
"g  c gray24",
"h  c #254224",
"j  c #264325",
"k  c #274326",
"l  c #2E4124",
"z  c #2A4827",
"x  c #2A4A27",
"c  c #2D4729",
"v  c #2B4C28",
"b  c #2D4D28",
"n  c #37412E",
"m  c #30522A",
"M  c #35502D",
"N  c #36532F",
"B  c #375A2E",
"V  c #395A2F",
"C  c #394634",
"Z  c #3A4634",
"A  c #3E4E34",
"S  c #3F4E34",
"D  c #3D4438",
"F  c #3D4538",
"G  c #3E4538",
"H  c #3D5C31",
"J  c #3E5C31",
"K  c #3F6131",
"L  c #3F6232",
"P  c #445633",
"I  c #47523B",
"U  c #465938",
"Y  c #465939",
"T  c #465A39",
"R  c #4B593F",
"E  c #4B5A3F",
"W  c #446434",
"Q  c #446534",
"!  c #466637",
"~  c #446935",
"^  c #456A35",
"/  c #4D6439",
"(  c #4F653E",
")  c #486A38",
"_  c #4E6B3A",
"`  c #4E6C3B",
"'  c #4C703A",
"]  c #4C713A",
"[  c #53723E",
"{  c #53763D",
"}  c #53773D",
"|  c #587D3F",
" . c #587E3F",
".. c gray26",
"X. c #556D40",
"o. c #556E41",
"O. c #567242",
"+. c #577342",
"@. c #5B7444",
"#. c #5D7545",
"$. c #5E7645",
"%. c #577841",
"&. c #5B7F42",
"*. c #637F47",
"=. c #5C8042",
"-. c #618045",
";. c #658748",
":. c #658848",
">. c #68894A",
",. c #6A8E4A",
"<. c #6C914B",
/* pixels */
", e , , , e u u u 3 o 3 + : : o , e t = t o u u u : : e : u u , : + & o a , = f q p s g u ",
", e : : e e , : , 3 o 3 $ e u u e u u : t & u e e , : t = u : : & : & & o , = C c z 8 2 2 ",
", e 3 & e 3 o u e e + , a : e u u u u e u : u u g e e , , e , : u t o u u u i %.~ B V L [ ",
", e e t e u , < s u , , u u u u e g u g e u t + & u e e u u g e + = g g g 3 * L ! L J T R ",
", e e e u u e u u e e , & : & , t o s ..u , g g u e u u e g s d $ e s u g : : m ~ ] } } ` ",
"e u t $ , e : = e d $ u u u u g t o u g u & u u y + $ g u u u , & : e u u & X j b L ]  .:.",
", , e 3 o , o : u u & u u g u g : o u g d + u u s e & u , u :   & & : , t u @ j b L ) ] +.",
", e e ,   e & u e t   : : : , , , o u u t o u : u , e u e u s e e e & , o d . h j m L } =.",
"e e $ & e t $ u e e o u u , e u u g u u u g u & g g u u , g e : e u e , g t . 7 ; x L =.<.",
"e e e u u , e e e e   , : e u u e g u g u , : e u s u u u g g > o g e u u u . h h m B ^ <.",
"e e e , u d $ e u e   u + e e u u , e ..u u , ,   u u u u g u o u e = g u u + 7 h b ~  . .",
", e u u , o e , e e   u g u u u u g u g g , e u ,   e u e g u u u u u u u u   ; h m ] :.( ",
"u e e u t   u u e e   u , , : , , o g e g , + : : u e e e u u e u s u e g s   ; h b L =.( ",
"u e e u e t e e e e   u e u u u u u u u e s u e g + & u u u e u ..u , & u g   q z m L ] | ",
"e , = e = u e o u u + , , , u s u g u   e u u : u , g g g u u u u + d = e g   7 7 v ~ O.F ",
"e ,   e , e e   u u   e e u g g e g e   e u e e u u g u e u   & : + o g g u   h 7 v B L o.",
", & : e , e , e e u + u e + u u s u :   u g u e u , & u , u u u u g g u u ,   7 z m L } <.",
"e , + e e & e u e u   , : , , e e u ,   u u e u u , e u , g & u g u u + , g + ; h m L *.>.",
"e u e u e u u e u g + e , & , , e u e   u g g g g : g u e u : : : g & u u u   ; h b ) ` E ",
"e , e : , , & : e u , , e u e ,     e   s u e u u g g u e u & g g u   u u g   h v m L ] -.",
"u e , u e e u e , u u u s u u e u u e   u g + e , , : , g g &   u g   g e e   7 h b ~ ` G ",
"e e , : e , u e u u e : : , u e u e e + u g u u u   u u u e + e & u + g t g   7 ; x H #.@.",
"e e : e , e e e u e : e , , , , e u u & e u e e u : u u u ,   u , g + u   s + 7 j m M l @.",
"e u e e e e e , u u e , : , , , e e e   u e u u u u u u u , g u g & + & & u   ; 7 b V ] >.",
"e e u s e u e e u e e : e ,   , e   e + : e u u g , , u e e ,   + : & & o u   4 9 m ! X.P ",
"e e , o , e e u e u , , e u u u u , e u u u : u u u u u e u e u : e d e u e   4 j b L [ I ",
"e e e 3 u e e u e e : e u u : u u u e + u u   +   g u e u u , , & :   e u , o z z m L ! Y ",
": , e e e e e : e : & e e e + s : u u , u u u e u e e e u u & u e & & , u e t 7 7 v ~ ` i ",
"e e e , u e u e u , + e e e e u s u ,   g e u s u   e g s , & e g u , o + e o h 7 b m N T ",
"e e , , e $ e , e , + e u e + e u u , : e u e e u   u u g u u e u e u u t u , 7 j m V H V ",
": u e : e , o , e ,   u e , ,   e u , e u u : , , , : , u u   , : & + o   u , 6 j m Q / q ",
", , , , , , , e e e + , e e + : e   s g u g u u u e g u u , & e u e u u e u 1 w 9 b ~ / % ",
": e e e e e , e : e & u e u u u e + , e e e u u u u u e u , g o t e , e d g & j z m H ] $.",
", e e e , e e e e , & u : u u e e u e , e e &   + u u u u , : , : : 3 , + u , 8 h b L &.&.",
"e e : e , , o : e , , e : , e e e e :   e : & & : , e e u u & 3 :     , o u g 7 ; z H K D ",
"e e , o , e + : & e , , e e e u u u e , e e , , e u & u u , &   : : & e e u e j j m V Z r ",
", e e 3 e e + 3 e , , & e e e , o e e u e   , & u e u , u u = + t , e u u , e ; h b L $.F ",
", e , e e , , , u , e o & e , ,   e e , u o t u u ,   , e g u e , e e u , e 5 ; h m ' =.S ",
", , : , : , o , e , e o & + t e o 3 , , e u e e e , , , e , e o 3 ,   t , , u 7 j b L } ` ",
", e , & , ,   & , : , + , & , e o 3 e , u e e & e u o , u u , : , ,   3 = e e 7 h b L ) A ",
", , & + 3 e o > , , , + 3 e e u o 3 e e e + e , e e e e , , e : e ,   + 3 e e ; h m ) | W ",
"+ : , , o 3 + , e , , + e , , : : e , , e , e , + : , e e o 3 o 3 , o + , o 3 k L } &._ - ",
"  > , & > , 3 o : , , e = + + , : o > : e u e e u u e e , o , t e : , , 3 e e { :.;.U 2 u ",
"  > , : , , , : e : , , , , & , : e , , u : + 3 , e e e e : e o 3 : e e o t u ,.-.I O 3 u ",
"  > , , : , , e , : & : + : : , , u , , : , o &     > : e o > o 3 & : u = e e n 0 # & e u "
};
