/* XPM */
static char *result[] = {
/* columns rows colors chars-per-pixel */
"45 45 82 1 ",
"  c #0B0B0B",
". c #141414",
"X c #131C14",
"o c #181B17",
"O c #1B1B1B",
"+ c #172116",
"@ c #1C221C",
"# c #1D281C",
"$ c #21241D",
"% c #1E3C21",
"& c #222222",
"* c #242B24",
"= c #292B26",
"- c #292929",
"; c #263127",
": c #2A3524",
"> c #213E22",
", c #2A3B22",
"< c #2C332C",
"1 c #2D3A2D",
"2 c #313420",
"3 c #30352E",
"4 c #33392F",
"5 c #333333",
"6 c #343B33",
"7 c #3C3D3C",
"8 c #254224",
"9 c #294626",
"0 c #294827",
"q c #2D4C28",
"w c #36442D",
"e c #39472E",
"r c #324D2A",
"t c #3A4D2D",
"y c #2F512A",
"u c #32542B",
"i c #3D522F",
"p c #36592D",
"a c #395B2F",
"s c #364430",
"d c #3A4433",
"f c #374F31",
"g c #3D4B34",
"h c #3D4338",
"j c #3D5431",
"k c #3C5C31",
"l c #3F6232",
"z c #404E37",
"x c #434F3A",
"c c #425432",
"v c #435A35",
"b c #495C36",
"n c #445139",
"m c #475A39",
"M c #4A5C3C",
"N c #446435",
"B c #496137",
"V c #456935",
"C c #496B37",
"Z c #4D643C",
"A c #4C6B3A",
"S c #51663D",
"D c #536B3E",
"F c #4D723A",
"G c #52753D",
"H c #55793F",
"J c #587D3F",
"K c gray26",
"L c #506140",
"P c #566C41",
"I c #586E42",
"U c #577541",
"Y c #5C7444",
"T c #577B40",
"R c #5B7C42",
"E c #637F47",
"W c #5C8142",
"Q c #628346",
"! c #658748",
"~ c #658848",
"^ c #698B4A",
"/ c #6C914B",
/* pixels */
"-5.dY^4--55-&-&55&-55-555555-5-55-5-5-5616775",
"5<zR!H335--55-5-5-55555-5-5-O--55555-53sq8<=<",
"@vJHN9*-5-&5--5-5---55&--5-.& O55555.5hFlakVj",
"jHAp9>*55 -55-&--55 7-5&5&55555555-5O-sNNlkMh",
"sVNy9>&<5---5--5555-55-55--5&&O55-75< #pCFHFj",
"bFNu98=-5---5--.-5-5555-5-5O5555  7-55;0pVFWL",
"sUFp9%X-.. 5&- 5555555555O55--5555.5.O+0ulAUM",
"7PVu9%*-5&&-55-&5&55--5-5&555  55&5565;8qpVTZ",
"3sju08555o55O5555-555575-5555555-55-551%8uCQP",
"4clq>%*--5-&55---&55555555755555555555480ulHD",
"BRVu9><5---OOo ..O&&55&-5-. . .       &%0uFJt",
"ZGNuq9. O-555-55555-&-5&7-5-55-5755&5&1%0aHRn",
".gVu92@O55&&55-555555&-&75-&55-5-K.&5&4%0uCHw",
"*bVp9,X55--55--5-555----55O-.5-5-555-&68qpNHb",
"rkku9>4-55-55.-.5.&5 --555--5757&5555-1>8pAZ4",
"gjuq88<--5557& 55775---55--55775-7565-688ykVe",
"5mVy8>X  5-5-5557&55-5555 557555-57-7-*8qpVWP",
"gVNpq0<55555. 57557- 5555 5557K5 7-77 X%0pCQP",
"hANu9,-355&5-7---5555555555&&5577555555%9pAZx",
"gLZp9,--5- -57-& -.5. O.       557K75768qalUb",
"SHNu8%<55-5555557557&55557555555775765688pVMh",
"Miru086  5&-577555575557K5K57555--5-7 +%>yVYc",
"cYBq>%-7--OO55O555 &5757.5755-75.5-&75180urjL",
"3bVp8%55O-O 75-575.555-555K555&5&5-5O&5>8ylUP",
"cHNpq8<655&.57-555 57755-5757577&- 5756,9pZSg",
"wZAp9>*-55-57--  577-5& -7&--5-.5 777--,9uVSs",
"SQAp9>; 7O5757&75555-557&K75&77O-55555$qqpNNg",
"DWVpq8;--5-555-575557557-55555755577753>8uVb5",
"mVky88<<7555575K77555555755--5755555-5*88qujg",
"=ZAu88-75&7--&75&5555--575575755577775189ukkf",
"mGVpq8<5OOO&7O 5OO-5-7 .OO&O5 75756757$,9pVv1",
"wUAu0>X5. 5- 5-555-5 555 7&57O55-7 -&-.29pVgO",
"nRUk0%<-5&&&57&575O&.7-O57&75&7K575 5-&8qplUM",
"kJFp9>;<-& &5-O55o&5&O75K5777..5755755@>8uVRB",
"ZJly08+55O 5-7.5-o 7O...  O5K 7-75O55O*%>qkk6",
"UWCu8>1555--55 5 -55OO57775.57OO5575--;80ujh-",
"vHVp08;-55 .75 5.555 O 5555-5K5575557 6%9rVPh",
"mGANp0;<-565755555-565775757-5777575775>9pGGs",
"MWGVu06,557-O--- 5    .    .      .   X>9yNGv",
"bGGFVp0%%8>:9:,88>q2:>>>>,%%>8>1%%>>>>9>9yNNg",
"hLklNNu8>9%80>98>>q88>8%8q88q%%q8888>80>9pFGa",
"wVkalGkuquqqyquuqqyququ9qyquyqqyqyqu0uaqNHRc$",
"*=:89wjFlkklaVNpuVllVpujVlCllpVllFVpllCJ~Rg<6",
"577s16MJYdlRFZZkfAVUPA9EAFAQGlUFW~JVWGH^Us.57",
"556@NzZzh3hRE.;am5mnn!YYhQL!/PhRZSJ//WD6=.&55"
};
