/* XPM */
static char *result[] = {
/* columns rows colors chars-per-pixel */
"45 45 82 1 ",
"  c #0B0B0B",
". c #141414",
"X c #131C14",
"o c #181B17",
"O c #1B1B1B",
"+ c #172116",
"@ c #1C221C",
"# c #1D281C",
"$ c #21241D",
"% c #1E3C21",
"& c #222222",
"* c #242B24",
"= c #292B26",
"- c #292929",
"; c #263127",
": c #2A3524",
"> c #213E22",
", c #2A3B22",
"< c #2C332C",
"1 c #2D3A2D",
"2 c #313420",
"3 c #30352E",
"4 c #33392F",
"5 c #333333",
"6 c #343B33",
"7 c #3C3D3C",
"8 c #254224",
"9 c #294626",
"0 c #294827",
"q c #2D4C28",
"w c #36442D",
"e c #39472E",
"r c #324D2A",
"t c #3A4D2D",
"y c #2F512A",
"u c #32542B",
"i c #3D522F",
"p c #36592D",
"a c #395B2F",
"s c #364430",
"d c #3A4433",
"f c #374F31",
"g c #3D4B34",
"h c #3D4338",
"j c #3D5431",
"k c #3C5C31",
"l c #3F6232",
"z c #404E37",
"x c #434F3A",
"c c #425432",
"v c #435A35",
"b c #495C36",
"n c #445139",
"m c #475A39",
"M c #4A5C3C",
"N c #446435",
"B c #496137",
"V c #456935",
"C c #496B37",
"Z c #4D643C",
"A c #4C6B3A",
"S c #51663D",
"D c #536B3E",
"F c #4D723A",
"G c #52753D",
"H c #55793F",
"J c #587D3F",
"K c gray26",
"L c #506140",
"P c #566C41",
"I c #586E42",
"U c #577541",
"Y c #5C7444",
"T c #577B40",
"R c #5B7C42",
"E c #637F47",
"W c #5C8142",
"Q c #628346",
"! c #658748",
"~ c #658848",
"^ c #698B4A",
"/ c #6C914B",
/* pixels */
"55&egvZMvPZknwm<mDSwv3cMSehz5gr;.SM636evdi@5-",
"57<VMGWDT~GJRHGZVRQZUMYiHSANMikvfUJvdIGGBGv<3",
"57;kkTGCVVlFHCNCaNAANVBrNZNlVukNVNVkjNGNNAJg.",
"@d9alFVlauypkuauupppppyyupupuqupuuuquuayuaHRd",
"N10lNVau080000q88q09q980999088999098099180V!Y",
"g6sFNa000%8%>>1>88>>9>%8>,,9>8>>28,%8%%>8%0T^",
"AMjly91;;1+;;X5-<**;1<<1-==<X<6o@X5;<*.-&*&14",
"zWFy8%:5-5<5-3573- -565 5-5< -=5o 5-5---<5=5-",
"hYlq8>3-555-5.O55-555O- 5555 -55-O--5-.55-55-",
"5dau885555o&& O-75O55---5-55555-5--5O&.-- --5",
"hlk0%>K5 -  &5O7555-&OO&5 &5-55-&5--5& --5&55",
"WWlq9:-5.--&&-&-5575. O55--65555&5O-5-55-55--",
"YFau98O775-55 7-5555755555-.5567-5O5&5-5-55-&",
".ZVq,235555555O-7575555K577 -&.55-.55--------",
"1ZNu8%=5  .O&- 55-&---&555-55 --55 -5- -5&55&",
"aaau88-555755555775 55555&-555.-55.-5&5.---5-",
"mpyq>> 3. -575O-775 77557 -5755-55.-55555-5-5",
"5AV0>>557-OO-7O5555-55555-75&7.55-O&-&-5555-&",
"MNlu00 -55 &O--55557 . 77.5575&555&5555555555",
"nUN092 55575&555555755&5555-55575--5555-- --5",
"nPVu8: 6 OO&. -555--7555&.5 5- ----555-75755-",
"^Faq>% 5OO.O757-555557555 555-----555-5-5-555",
"Y9ru1%.7 5.7-5 -775-55555O55--------7-55--&55",
"YYk0%; 777.5O5.5555 75575.55555-&--7555-5&-5-",
"hDVq88 <57 K5 O77-&--5.75 -575556575-55555-55",
"QFlyq8 755 57KO7557755557 5  -555--55&O--&5-5",
"MAZq8% 557OK&&&5557&77775 575--O-5.75555-5553",
"^Ely8%.7-.5575O7-55-57555 -5-5--&- 5555O55.&5",
"/Gly98 -55K77557-5O-555K5 &5755.55.555----&O-",
"Plaq>8 577 .&O 5557755555 5757K555 55 55-5 -5",
"hUVq>> 75O7.5555777-5&75- 77575---.55 55.5O-5",
"JFlu01 75O-5K75575O.7557-755755755 5-55555555",
"ZWly8% 77<5755555-55&&.-757 --&--7 5-75 55555",
"L~Fy8% 575577577575 -55-7757557575 -5-5 -555-",
"JJly8>.757O-5 575565 --57K5-57<<.5 555.77-5-5",
"/Vay8> 65757 -77755755&-57575555&- 5<55-5555-",
"/Wlq%% 57-555&-7-5677O575767755-55 555.55O.<5",
"WHly98 7 -O55577355-5&7 555 --=&&& 555O5 -55-",
"AGCk08+33;&@$.&3=4#3661+661X*66651#61*+;+sf35",
"s^Tq%>8%%8%,9:>>8>9,:%>%18>%>>>1%>>8%800alPs5",
"=Y~N889909>00990980998988q99q88q000080uuVNl01",
"owRHpuuuuuquuuauquaupuurpppapyppuapuyaNVUla06",
"$.gJFNNGVjkVNNNkuVNNZNrNVVCAVaAVCHFlCVVGFkk;7",
"55<vGNGHPdkRGgvkjmNSZHiYMGZQWCZGTWJG~TUWUmV<7",
"557$jgvdh-6BMO1fd5gdzIZchbnDDt4nwnuDIZLMjhj-5"
};
