/* XPM */
static char *result[] = {
/* columns rows colors chars-per-pixel */
"45 45 114 2 ",
"   c gray1",
".  c #030403",
"X  c #040403",
"o  c #040404",
"O  c #040504",
"+  c #0C0C0C",
"@  c #0C0D0C",
"#  c #0D0D0C",
"$  c gray5",
"%  c #0E0E0D",
"&  c gray8",
"*  c #151514",
"=  c #151515",
"-  c #141A11",
";  c gray11",
":  c #1D3619",
">  c #173919",
",  c #1B3D1B",
"<  c #2F2E18",
"1  c #22371E",
"2  c #293319",
"3  c #29331A",
"4  c #233D1C",
"5  c #2A3F1C",
"6  c #232323",
"7  c gray14",
"8  c #242524",
"9  c #252A23",
"0  c #252B23",
"q  c #262B23",
"w  c #2B2E27",
"e  c gray17",
"r  c #2C2C2C",
"t  c #2C2D2C",
"y  c #263624",
"u  c #2D3C2C",
"i  c #343F29",
"p  c #323232",
"a  c #323332",
"s  c gray20",
"d  c #333433",
"f  c #363A35",
"g  c #373B36",
"h  c #393939",
"j  c #3A3A39",
"k  c #3A3A3A",
"l  c #1F411D",
"z  c #21421E",
"x  c #22421F",
"c  c #25491F",
"v  c #254720",
"b  c #294622",
"n  c #264B20",
"m  c #294D21",
"M  c #3C4D2F",
"N  c #3D4D2F",
"B  c #2C5223",
"V  c #315026",
"C  c #345B26",
"Z  c #335328",
"A  c #365A28",
"S  c #365B28",
"D  c #3A5D2A",
"F  c #3B5D2A",
"G  c #364530",
"H  c #374530",
"J  c #3B4234",
"K  c #3B4334",
"L  c #3C4334",
"P  c #3C622A",
"I  c #3C632A",
"U  c #42562D",
"Y  c #455237",
"T  c #445933",
"R  c #445934",
"E  c #445A34",
"W  c #4A593B",
"Q  c #4A5A3B",
"!  c #42652D",
"~  c #42662D",
"^  c #426A2E",
"/  c #436B2E",
"(  c #446730",
")  c #4C6533",
"_  c #466B31",
"`  c #4D6C34",
"'  c #4D6D34",
"]  c #4D6E34",
"[  c #4E6639",
"{  c #546E3B",
"}  c #546F3B",
"|  c #4A7233",
" . c #4B7333",
".. c #527437",
"X. c #527836",
"o. c #527936",
"O. c #55743C",
"+. c #56753C",
"@. c #5B763E",
"#. c #5D773F",
"$. c #567A3A",
"%. c #577F38",
"&. c gray25",
"*. c #5E7840",
"=. c #578038",
"-. c #5B813B",
";. c #5C823B",
":. c #61823F",
">. c #638141",
",. c #658A41",
"<. c #658B41",
"1. c #688C43",
"2. c #6A9143",
"3. c #6C9444",
/* pixels */
"s q ..W ] <.+.;.3.3.=.[ [ %.K } 3.1.Q :.L @.@.1.U Y R d E A y % *.-.J t K N ' M ! - s s s ",
"k 0 I E o.=. .o.;./ =.<.;. .O.I o.>.'  .' #.5  .{ ..( ' Z D ) )  .-.P H *.;.o._ %.` q e r ",
"g 1 S F o. ._ I I C ^  .I I ^ C I I _ I ^ D V S ( I I ^ B S ~ ^ D I D S I | I I _ -.T O & ",
"u v C I  .I I B c B m B m B n n B B m B m c B m B m B n m B B m B m v B m B m m B o.,.Y # ",
"y b ^ ( ^ m m z > l l l l v , , v l l n l > z , 4 z v , , z z 4 v l > z l l z l l I <.:.w ",
"j G $.I B z z l , l , > > y , l , > > l , , , > 2 2 v , l , : < z 1 , z > > , , > x X.2.i ",
"= = d * ; X @ . . . +             +         +       o p o 7 7 9 & 7 k r r 3 s r r e r s r ",
"7 7 s e ; & s h p s s s g k k s 7 k s k r k g s s r 7 r r s s s k s s s 7 r 7 r r o r p r ",
"f o s k k s p o k s s s k s r k s 7 s s r p   & o s s s + p   r h + o r s 7 7 = e 7 e o = ",
"o & s k s s 7 7 7 s k s r & = k s + s s k k s & & r r 7 o s o s r 7 7 r s s p e + + 7 r s ",
"& & o k g r ; & r r = s s 7 h o k s &     + + + & h   & 7 s + s 7 e   & r r       o 7 r ; ",
"+ ; p = r ; & r s k r s g s + + k s k s k s k & ; r ; & s r & r r ;   ; 7 r 7 7 7 7 ; ; & ",
"; & s + $ & & r r o s s s &.s ; s k ; k s & 7 k + ; & r k s ; s p ; ; ; p 7 e 7 r e r e e ",
"7 ; ; r h 7   r ; 6 o s r s s & s s ; k   r s s   s 7 s r r 7 r o 7 e   + r o ; ; o p o o ",
"s ; 7 k g s ; g r k s s s r s   s & ; & & +   k 7 r 7 & & s   & k ; & & = s r 7 r e 7 r 6 ",
"s s r s k s s s k k k k s s s s s k s s k r 7 7 r s s s 7 s s 7 7 7 s 7 s k 7 s 7 o o ; o ",
"; = 7 s r s 7 r 7 s s r r s k r 7 7 r r k s s s r r s s g k s s s s s s s r r s 7 r 7 r r ",
"r p 7 r s k s s s s s s r s k s s s s s 7 s s s s s r r k s 7 s r s r s 7 7 7 7 r r r r ; ",
"; ; r r s $ & r s s s r r & k k & r k k ; s s s 7 s s r r s ; k s s r & s   7 o r 7 r r 6 ",
"; 7 r s r + r 7 k g s   s + 7 s 7 7 ; k 7   ; s 7 s k r     7 r s s 7 s r 7 7 s r ; s r   ",
"s r k & s a g s k s   7 ; k s s s s k s 7 s s s k s   s s s 7 s s + ; r s s r r r + s 7   ",
"s r s + k s s ; & r 7 s ; r ; r r s k s r s r s s s + r g r 7 s s   & 7 & s r & 7 7 r e & ",
"s s s p k s s s s ; 7 r + s s r s r k r + s r s s ;   s s r ; s s & & 7 7 p r r r r r + o ",
"o & ; s 7 & + o k 7 s 7 7 g s s k s k s k k s r r s s s r s s k r r ; r   o s r + 7 s ; 7 ",
"p p s r s s h p s s s k k r r r s s s g s s r s ; s s s k r s s r r r r r s r s r r r s ; ",
"= ; r k &.k k s s k &.k r s               + &   + s + 7   ; r k r 7   7 s 7 7 7 r 7 ; 7 7 ",
"p s s s g s s s s s r s k s s r ; 7 r r r r s r r r r s 7 7 7 g 7 r ; r r r 7 r r 7 6 7 7 ",
"r s s k o o o o k k 7 k o s k k s s s   s r s r   7 s s s s s   + s r s r r e e e r o r s ",
"7 r s r p p ; 7 s r s s 7 s s r g r r   s s r r r s s ; g s r r r r r s o   o o o ; ; ; 7 ",
"o s s s 7 k k 7 s s s s 7 s g k s r 7 7 r r 7 7 7 s s g s r   ; s r r s 7 7 r r s ; 7 7 7 ",
"; s r s & s s 7 r s r s ; s s k s 7 7 r s s 7 7   s ; + r + 7 + s s r r r 7 p 7 r 7 + & ; ",
"; r ; s ; s k ; 7 r r s 7 s 7 s + 7 & s s 7 7 7 7 s s r r r 7 r s s 7 r r r + & r 7 + 7 ; ",
"+ $ f s & s s ; s ; + k 7 r 7 r r ; 7 r g ; 7 ; r r s r r s r r r ; ; r r & & 7 e r = 7 + ",
"e e 7 7 7 s s ; s 7 s s s s 7 r s 7 r 7 s ; r 7 ; 7 r r r r s 7 s s r 7 & o o + + + r 7 ; ",
"o o + 7 r $ &   o           +   +   + 7 s r ; r r 7 ; & + +   + & & 7 7 7 r r 7 7 7 7 7 & ",
"e e r s r h s p r r r r r r s s s s k s s s r s r s r ; 7 7 7 r r 7 7 r 7 7 7 ; 7 7 7 ; ; ",
"s 7 r g s r s r r r s r r r s s r r s r 7 s s s s r r r s r r r ; r r & r s r 7 7 r ; r 7 ",
"s ; s 8 s = ; s s r r 7 s r o   r s r ; r r r 7 r s s ; r 7 7 r r r ; ; e 7 7 & 6 7 o ; r ",
"s 7 o 7 r ; o & $ r $ r s r r r 7 r s & s s r r r r r r s r o 7 7 r o + + 7 o   o + e 7 7 ",
"r r e s s r 7 r p 7 h o   p s r r & s 7 r 7 r r s r r r r $ 7 7 r r 7 r r 7 7 7 r e 7 7 7 ",
"7 r r r s 7 o   r s s 7 p r = 7 7 r r 7 r r 7 r r 7 s r s r r 7 r 7 7 7 r r ; 7 e o 6 7 ; ",
"7 ; & p r $ e 7 & s 7 s s s r r r r s ; s ; r r g o e r 7 7 ; 7 r r r o e r 7 & + 7 & ; 7 ",
"7 ; e r r p r r $ r r s r r =   ; + r r 7 7 ; r s 7 r r r 7 r 7 r r ; 7 r 7 ; 7 & 7 7 7 7 ",
"r r r r r s 7 r r r r r r r 7 7 & 7 s 7 r r r s r r r 7 r r s 7 r r r r r r 7 r 7 ; 6 6 6 ",
"7 7 7 7 7 r 7 7 r r r 7 s s r r 7 r r r s r r r r r r ; r r ; 7 ; 7 r r 7 7 7 7 7 +       "
};
