/* XPM */
static char *result[] = {
/* columns rows colors chars-per-pixel */
"45 45 111 2 ",
"   c #0B0B0B",
".  c #0B0C0B",
"X  c #0C0C0B",
"o  c #0C0C0C",
"O  c #0C0D0C",
"+  c gray8",
"@  c #141514",
"#  c #151514",
"$  c #151515",
"%  c #161615",
"&  c #1B1B1B",
"*  c #1C1C1B",
"=  c gray11",
"-  c #1B2019",
";  c #1E3B21",
":  c #222222",
">  c #282828",
",  c gray16",
"<  c #292A29",
"1  c #2A2E28",
"2  c #2A2F28",
"3  c #2F2F2F",
"4  c #2D3620",
"5  c #2D3621",
"6  c #233820",
"7  c #213F22",
"8  c #273925",
"9  c #283F23",
"0  c #2F322C",
"q  c #2B3829",
"w  c #323120",
"e  c gray19",
"r  c #303130",
"t  c #353535",
"y  c #353635",
"u  c gray21",
"i  c #363736",
"p  c #313E30",
"a  c #393C38",
"s  c #3A3D39",
"d  c #3C3C3C",
"f  c #3D3D3C",
"g  c gray24",
"h  c #254224",
"j  c #264325",
"k  c #274326",
"l  c #2E4124",
"z  c #2A4827",
"x  c #2A4A27",
"c  c #2D4729",
"v  c #2B4C28",
"b  c #2D4D28",
"n  c #37412E",
"m  c #30522A",
"M  c #35502D",
"N  c #36532F",
"B  c #375A2E",
"V  c #395A2F",
"C  c #394634",
"Z  c #3A4634",
"A  c #3E4E34",
"S  c #3F4E34",
"D  c #3D4438",
"F  c #3D4538",
"G  c #3E4538",
"H  c #3D5C31",
"J  c #3E5C31",
"K  c #3F6131",
"L  c #3F6232",
"P  c #445633",
"I  c #47523B",
"U  c #465938",
"Y  c #465939",
"T  c #465A39",
"R  c #4B593F",
"E  c #4B5A3F",
"W  c #446434",
"Q  c #446534",
"!  c #466637",
"~  c #446935",
"^  c #456A35",
"/  c #4D6439",
"(  c #4F653E",
")  c #486A38",
"_  c #4E6B3A",
"`  c #4E6C3B",
"'  c #4C703A",
"]  c #4C713A",
"[  c #53723E",
"{  c #53763D",
"}  c #53773D",
"|  c #587D3F",
" . c #587E3F",
".. c gray26",
"X. c #556D40",
"o. c #556E41",
"O. c #567242",
"+. c #577342",
"@. c #5B7444",
"#. c #5D7545",
"$. c #5E7645",
"%. c #577841",
"&. c #5B7F42",
"*. c #637F47",
"=. c #5C8042",
"-. c #618045",
";. c #658748",
":. c #658848",
">. c #68894A",
",. c #6A8E4A",
"<. c #6C914B",
/* pixels */
"      + , , , , , e e , : , : e e : e e e e e e u e e e , e e u u , e e e , , e , , , , , ",
"> > > : , e , e e e e e e , u e e , e e e u e e e , u , & , , e e e e e e e , u e e e e e ",
", , , , & , : , e , : e e , e , e e e , u e : , , e e + :   = e e u e e $ e e t e e 3 : , ",
", : & , + & , e 3 o e e e , : , , e 3 o s e e : u : u e e e e u u u , u & , 3 $ e t & : , ",
": , > o 3 , : e e , , , e , e e u e u , e e , e e , e e , , = e t , u u e   o , u e e e , ",
", , , 3 e , , , e e , e e , , $ e e e e u e e , e , u & e e u t   o d , t e , e u u 3 e e ",
", , 3 + o   o , + + o e , , o e u e e e e e e u u & u e , e e e u e $ e $ & o : e , o , u ",
"e : o , > & , , 3 : : e e e , , e : u u e , e e e : e u e   o e u , e e u u : = u < u : u ",
", e : e , , e u e & e e : e e e u e e e u u u u , e u e e u u e e e u e e e u e u s e , u ",
": : , , , : , , , e , , e e , , , : e u e u e u u u g u u u u e e e e e e t u d e u e 3 3 ",
"& , , , , , e e , , , & & +   + + & : , e e : e u , +   +   +           o   & $ e , + o o ",
": , e + + + o o & , e u u , u e e e e , : , e : u , e , u e , u u u u , u : u u , , , 3 3 ",
"+ , = e 3 , & & e e : : e e e u e e u e e : , : s e , : e e , e , g + : u : u u & u a $ + ",
": , + , e & + e e e , u u e , e e e u u , , , , u u & , + u , u , u e e , : g u : u : e : ",
": & + , e , t , e e e u u + , + e + : u   , , u u e , , u g u u : u e u e , u u & u e u : ",
", , , : u e e , , u e e u :   e u s u u , , , e e , , e u g s u , u u u u , g g , u u u o ",
", : : : o o o   o u e e e e e u s : u u e e e u u   e e s e u u , u u e u , : t t e u e , ",
"u e o e 3 3 3 e e u e u +   u u u u u ,   e u e u   u u u g g u o g , g g o o o o g u u e ",
", , > , e e , e e e : e , s , , , u e e e e u e e e e , : e u u g u e u u u u u s u u u t ",
", , : , e , , , u ,   , e g e :   , + u +   & +               u e g ..g u u g g ..g e : = ",
": u e e e u e u e e e e e u u e g u u u : u e u u s u u u e e e g g u u u t d u u e u t t ",
", : u , + e u o   e : e e g u u e u u u e e u g g u g u g u u s , , u , g o + & , u : & o ",
"o + e e e e e t , , & & u u : e u u   : u u e u + e g e u e u u + e , : u u u u g t u u u ",
"& 3 e , , & e u & , &   u u , e s e + u u u e u e u g u e e : e : u , e & : u u g + u e u ",
"  , u + e e e u u e : + u u , u u u   u g u u u , u g u u u u g : ,   u g u s y u & g e u ",
"  e u : e u , , e u , u u e ,     e g u , u :   , g : , , u , + u   u s g , e + e u e , : ",
"> e e , e o ,   u & e u u g : u e e u u , u u u : g g e & g g & e e u u u e & $ u e e : : ",
": e e e e , , , , u e u e u , u g e e u u u u u , u u u u u g u e u u u u u u g u e , t e ",
"e e , e , u e e u u u u u u u g s u u e e u u u g e e , , e g u e e u u , e , u e u , = : ",
"o : o o , u , g u , u , , , u u , u u u e , , e g u u g u u u u u g g g g u u u g u e u u ",
"> e , 3 e , e u = & & : g &   u & & , e , g   + & & : & u   u e u u u g e s : u s g , : u ",
"o o t o : : o e +   3 , o e , e e u , u   u u e   g : u u & u u e u o > : e   , d e : : , ",
"3 3 e 3 e , 3 , t : : : t u : u g e & : + g , & u g : g u : u ..u u u o e e & & $ + u & : ",
"& : : , , , , e , :   : e e & e u & : e : & g u g u g u g + + u s u e g u e & : e = t : + ",
": e , o       e e &   3 , u + u , &   d & + + +     & u g o d , u u = e e & : e s g o & & ",
"u e , + + 3 t u u e , , e u o u o , e e & & u g g u u + u g = & e u g u , , , u u g u & o ",
"= o 3 , 3 = , , u e o + d e   t + u u u o &   t e u u , u g e u g u u u g o t u g g u o a ",
"e t e o e e , e , u u u g u u u e e , e u u s g e g u g , u g g s u u u t d u & : 3 u , , ",
"e u e 3 e e u 5 e e g , & 1 , , o t o       +         +             + . . . @ X : * i = = ",
"n ,.{ k ; 7 7 ; ; j 7 8 j w 6 7 h 7 z 4 4 ; 7 7 7 h ; ; 7 h 7 q ; ; 7 h 7 h j j m L %.C f ",
"0 -.:.L h h j h h j ; h z 9 j j 7 7 z j 9 7 j ; h v h h z 7 7 z h h h h ; j b b ~ ! ~ c q ",
"# I ;.} m b b m b m z b m b m m b v m b m b m x b m b m m v v m b m b m x m L L ] L B z p ",
"& O U &.) L L ' L V H L H ~ Q V m ~ L L ! V M H ~ L ) L L B ~ L L ] ~ B L L ) ] } J V 8 s ",
"e 3 2 _ | ) } =.$.Z K &.] / / H N ` ! [ X.] l #.` ] ` *.} L O.] =.:. .^ =.} ]  .} T L 2 g ",
"u u u - W A ` S F r D &.$.% q V T i Y I P >.@.@.G -.E >.<.o.F | ( (  .<.<.=.+.:.` R [ 2 u "
};
