/* XPM */
static char *result[] = {
/* columns rows colors chars-per-pixel */
"45 45 111 2 ",
"   c #0B0B0B",
".  c #0B0C0B",
"X  c #0C0C0B",
"o  c #0C0C0C",
"O  c #0C0D0C",
"+  c gray8",
"@  c #141514",
"#  c #151514",
"$  c #151515",
"%  c #161615",
"&  c #1B1B1B",
"*  c #1C1C1B",
"=  c gray11",
"-  c #1B2019",
";  c #1E3B21",
":  c #222222",
">  c #282828",
",  c gray16",
"<  c #292A29",
"1  c #2A2E28",
"2  c #2A2F28",
"3  c #2F2F2F",
"4  c #2D3620",
"5  c #2D3621",
"6  c #233820",
"7  c #213F22",
"8  c #273925",
"9  c #283F23",
"0  c #2F322C",
"q  c #2B3829",
"w  c #323120",
"e  c gray19",
"r  c #303130",
"t  c #353535",
"y  c #353635",
"u  c gray21",
"i  c #363736",
"p  c #313E30",
"a  c #393C38",
"s  c #3A3D39",
"d  c #3C3C3C",
"f  c #3D3D3C",
"g  c gray24",
"h  c #254224",
"j  c #264325",
"k  c #274326",
"l  c #2E4124",
"z  c #2A4827",
"x  c #2A4A27",
"c  c #2D4729",
"v  c #2B4C28",
"b  c #2D4D28",
"n  c #37412E",
"m  c #30522A",
"M  c #35502D",
"N  c #36532F",
"B  c #375A2E",
"V  c #395A2F",
"C  c #394634",
"Z  c #3A4634",
"A  c #3E4E34",
"S  c #3F4E34",
"D  c #3D4438",
"F  c #3D4538",
"G  c #3E4538",
"H  c #3D5C31",
"J  c #3E5C31",
"K  c #3F6131",
"L  c #3F6232",
"P  c #445633",
"I  c #47523B",
"U  c #465938",
"Y  c #465939",
"T  c #465A39",
"R  c #4B593F",
"E  c #4B5A3F",
"W  c #446434",
"Q  c #446534",
"!  c #466637",
"~  c #446935",
"^  c #456A35",
"/  c #4D6439",
"(  c #4F653E",
")  c #486A38",
"_  c #4E6B3A",
"`  c #4E6C3B",
"'  c #4C703A",
"]  c #4C713A",
"[  c #53723E",
"{  c #53763D",
"}  c #53773D",
"|  c #587D3F",
" . c #587E3F",
".. c gray26",
"X. c #556D40",
"o. c #556E41",
"O. c #567242",
"+. c #577342",
"@. c #5B7444",
"#. c #5D7545",
"$. c #5E7645",
"%. c #577841",
"&. c #5B7F42",
"*. c #637F47",
"=. c #5C8042",
"-. c #618045",
";. c #658748",
":. c #658848",
">. c #68894A",
",. c #6A8E4A",
"<. c #6C914B",
/* pixels */
"u e & # 0 n e e = u : & 3 o > o e : >     & o , : , , u , , : : + : & : , e , , : , , >   ",
"u 3 O I -.,.u t o e e : 3 o e : e e e e , 3 + : u , , e : , & , , , , : e : , , , : , >   ",
"u 2 U ;.:.{ e e 3 , , : e t , o , e e u u e e u e : > o : , + + = e , , : o 3 , > & , >   ",
"- _ &.} L k 3 o , + o , 3 o 3 o e e , : + , e , e , , e : : , , e + , , e , + 3 o , , : + ",
"W | ) m h ; e e 3 +   , e : e , , e e e e , e + e e e 3 o u e e 3 + , , , > o e 3 + & , , ",
"A ) L b h 7 e e = 3   , , : , u u , o u e & e e u , e 3 o e , & , + , : , &   , , & , e , ",
"` } L b j 7 u , , t   , 3 o e , e , , , e e e u e , , 3 o e t + & o e , e , o , : , : , , ",
"S =.' m h ; 5 e , u e e , e u g e ,   , u u t o u , e e   , , e & o e , u , , , e e , e , ",
"F $.L b h ; e , u u e , t + = u u , u e u & ,   e u e e o , e e e & , , e 3 + e e 3 e e , ",
"r Z V m j j e u e e & : :   & , u u & u e , , e e , e u u u e e e , , e & : + e , o , e e ",
"D K H z ; 7 g u o ,     : 3 & u u e e , : & & : e   : e e e e , : e , , e : o , , e : e e ",
"&.&.L b h 8 , u + , 3 : : , : , u u u u +   & e e , e u e e u u : u & , e e e e , e e e , ",
"$.] H m z j & g d e , e t o g , u e u u u u u e e e , + e u u u e u & e : e , e e e e e : ",
"% / ~ b 9 w 1 u e u u e u e & , u u g e u u u g u g s   e : + e e , + e e e , , , , , , , ",
"q / Q m j 6 , u   o + & : ,   u u , : , , , : u u e , u e   , , e u   , e , o , e : e u : ",
"V H V m j 7 , u t u u e u e u u g u u   u e e u e : , u u e + e u e + , e , e $ e , , e e ",
"T N m b 7 h o e + o , u g e & , s g e   u s u e g   , u s u e e e e + , u e u e u , e e e ",
"i ` ~ v 7 7 t e u , & & e u & u u e e e u e u u u , u u : s + e e e & : e : e e e e e , : ",
"Y ! L m z z o , u e   : & , , u u e u g   +   u u + e u u u : u u e : e e u e e u 3 e e e ",
"I [ L b j 4   e u e d e : u e u e u u u u u : u u u e , u u u u e , , u e u e e , o , e e ",
"P X.! m 9 4   u o & & : +   , e e u , , g u u e : + e   e ,   , e : e e u e e u e s u e e ",
">.] V b 7 ;   u & & + & g u g , u u u u u u u e u   e e e , , , : , e u u , e e e e e u e ",
"@.l M m j 7 + s   u + g , u   , u u u : u e e u e & u u e , , , , e : e u e e e , e : e e ",
"@.#.H x ; 7   g t g + u & e + e u u u   u u u g u + e e u e u , : : e u u e u , e : , e e ",
"G ` ~ b h 7   e e g   g u   & g g , : , , e + g u   e u u e u u s u u u , e u e e u , e u ",
"-.] L m v h   g u u   u g g & u e u g g u u e u s   e     , e u e , , u e : & , , : e , e ",
"E ` ) b h ;   u u u & g : : : u e u g : g g g g u   e u e , , & , e + g u e u u e u e u e ",
">.*.L m h ; + g , + u u g u & g , u e , u u e u u   , u e e , , : ,   u e u e & e e + , e ",
"<.} L m z 7   , u u g g u u u u , u & , u e u g u   : u s u u + e u + u e e , e , e : & , ",
"o.L B v 7 h   u g g o + : &   u e u g u u e e u e   e g e g g u e e   u u   e e , e   , e ",
"F O.~ v 7 7   g e = d + u u u u g g g , u : u u e   u g u s u , , , + u u o e u = e = , e ",
"| ] L m z q   g u & , u ..u e u u u & + g e u s e u u u u u u u e u   e e e e t e u e e u ",
"( =.L b h ;   s g e u s u e u u e e e u : : + , g e g o , , : , , u   e e u u   t u e e u ",
"( :.] m h ;   u u u u u u u u g e u e   , u e , g g u g u u u u g u   e e , e o , u u e , ",
" . .~ b h 7 + u u g = e u o u g u u u u   , , u u ..e , u u e e + u   e u e $ d u , e e e ",
"<.^ B m h h . u u u e g o > g g u u u s u e : , u g u g e u u e : ,   e e e e , u u e e e ",
"<.=.L x ; 7 . t g , e u e : e g , u u g g & u g u u u g u u e , u u o e e u $ t e & $ e e ",
"=.} L m j h . d o , & e e e s u e u e , u : u o t u u o , , , : : :   t e u & e   , e e , ",
"+.] ) L b j @ u t , : & &   : u , u & e s u u + d g u o : g u g u u & u u : o , o 3 e , , ",
":. .] L b j X & u u e : & , u u u g $ + y u u & u g u o t g u u u u $ d e = : e , $ t u e ",
"` } } ] ~ m : : g u s e $ d s g e u u e u g g , u ..s o t , & : & , e e u u e u u e e e , ",
"R T J L ! L * 3 g g g = + e g u u e e u & + t u e g u g e u u u u , , u s < , u e t e e , ",
"[ L V B ~ %.i u u u o t u : , e , , e e g u u : u e u u u u e : a , + e e u o 3 e & 3 e , ",
"2 2 8 z c C = , o & & : & : : u = t : , e e u & t : u u e u u e $ 3 o 3 , : , e e : : e , ",
"u g s p q f = , a o & + : , u u : e : : u u u o t = t e , o : : + 3 o 3 u u u e , , , e , "
};
