/* XPM */
static char *result[] = {
/* columns rows colors chars-per-pixel */
"45 45 81 1 ",
"  c #0B0B0B",
". c #141414",
"X c #141C15",
"o c #181817",
"O c #1B1B1B",
"+ c #172116",
"@ c #1C231C",
"# c #1D281C",
"$ c #20261E",
"% c #1E3B21",
"& c #222222",
"* c #222B22",
"= c #282827",
"- c #292929",
"; c #2B3524",
": c #213E22",
"> c #2A3C22",
", c #2D322B",
"< c #2D392D",
"1 c #313320",
"2 c #30352E",
"3 c #34392F",
"4 c #333333",
"5 c #343B33",
"6 c #3C3D3C",
"7 c #254224",
"8 c #294526",
"9 c #2A4927",
"0 c #2D4C28",
"q c #36432F",
"w c #39472E",
"e c #324E2A",
"r c #3A4D2D",
"t c #2F512A",
"y c #32532B",
"u c #3D522F",
"i c #36592D",
"p c #395B2F",
"a c #364430",
"s c #3A4433",
"d c #374F31",
"f c #3D4C34",
"g c #3D4338",
"h c #3D5331",
"j c #3C5B31",
"k c #3F6232",
"l c #404E37",
"z c #454F3C",
"x c #425333",
"c c #425934",
"v c #495C36",
"b c #46513A",
"n c #465B39",
"m c #4A5C3D",
"M c #446535",
"N c #486036",
"B c #456935",
"V c #496B37",
"C c #4D643C",
"Z c #4C6B3A",
"A c #50663D",
"S c #536B3F",
"D c #4D723A",
"F c #52753D",
"G c #55793F",
"H c #587E3F",
"J c gray26",
"K c #506140",
"L c #566C41",
"P c #586E42",
"I c #577541",
"U c #5C7544",
"Y c #577B40",
"T c #5B7C42",
"R c #637F47",
"E c #5C8042",
"W c #628246",
"Q c #658748",
"! c #658848",
"~ c #698A4A",
"^ c #6C914B",
/* pixels */
"   .-=-=--4-&-&44&-44-44444--4444-44--45<566,",
"---&-4=44444--444=-4444-4-4-O--4444444<098<-4",
"----O=&=--&-4---4-4-44&--44.& O-4444.4gLkipBh",
"-&O-.O=44 444-&--44 644&4&44444444-4o-akMkjms",
"&-- 4=&44---4-4-444-4---4-44--O44-64, #iVDFDh",
"----4===-4-4---.-444444---4O4-44  6-44;9iBFEK",
"--4.   =.. --- 4444444-44O44--4444.4.O@9ikZIK",
"4& --O--4&&444--4&444-444&444  44-4444*78iBYC",
"-4&---444O4-&4-444446444-4444644444-44<%7yVWP",
"&&---&---4--44---&-4444444644444-44444<79ykGS",
"O------4---OO. ..O&-4-&46-. . .       @79iDHr",
"&-4...  O-444-44444-&-4&4-4-44-4644-4&2%9pGTb",
".-O4--oO44&&444444444&-&64-&44-4-6.&5&<:9yVGw",
"&-.-4O.4-4-444-4-444----44O-.4-4-64,-&5<9iVDc",
"&O.-4-4-44444o-.4.&4 --464--4646&4464-<%7yVC3",
"---&444--4-44& 44646---4---44664-4444-a77tjVw",
"=&&&     44444446-4444444 446444-4444-*70iBES",
"44 44-444444. 44446- -444 444664 J-J6 X:9iZEL",
"----44-44-&4-6---4444444444-&44664-6444:9iZKz",
"--&-----4- --64& -.4. OO       446J664580ikYv",
"&4444444444-44446464&44446644444664444577iBmg",
"-&4-.44  4&446644444444664646446--6=J +%:tNUh",
" .444-44--OO44O444.&4444o4644444.4-&45<79yehK",
"O4---O44O-O 64-464.44644446444&4&4-4O&3%7tkYP",
" -4.444444&.44-644 46644-4646466&- 4643;8iZKf",
" 44-44--46-444-  466-4= -6&--4-.4 666-2>8yBZs",
"--4-4 - 4O4466&44444-446&J64OJ6O4-4464&90iMNs",
"&44------44444-464446446-44444J44466445%7yBv4",
"-4-4-64-4646646664444444644--4J44444=4-77tyhf",
" &  -4-64=4---44=4644--4644644644666653:8yjjh",
"-4-44-44OOO&6O 4OO-4-6 .OO&O6 44644645$>9iBx<",
"  4 && 4. 4= 4-444-4 444 6=44O44-6 =&4.;8iMhO",
"4-444=,-4&&&44&464O&.6-O46&64&6J464 4,@70dkIK",
"O&&----4-& &44O44O&4&OJ466646..4644644@>7tBTn",
"&--    44o 4-6.4-O 6O...  O6J 6-46O4,O*:70jj<",
"44-..44444--44 4 -44OO46644.46OO4464--,79tjs-",
"O 4--O--44 .64 4.444 O 4446=464464446 4%7yVLg",
"444 44=4-446644444-454664646-4666464662%7iDIs",
"4444-46;446-O--- 4    .    .      .   O79yBDj",
"5~I7%%%%%7%>81%<7:91;::::::%:8:<%%:7::7:7yMNf",
",W!k7777:7%79787::977:7%79779%:97777%79:8iDFj",
".b!Ft00t0t90t0ty00ttt0y90y0tt00t0y0t9yp0BYTc#",
"O nEZkkDkpjkjBMjyBkkBpehBkVkkpBkkDBikkVHQTf-4",
"4,,ZHVGEUgkEDCCjdZMILD8RZDZWGkIDE!HBEFF~Is.46",
"446OMfZfg4gEU.;pn4mbx~UUgWKQ^SgHCCH^^ESq-o&44"
};
