/* XPM */
static char *c5b9a49ca8ef4262da37491128b78a837gPDJVOYHBUl1iIc[] = {
/* columns rows colors chars-per-pixel */
"45 52 218 2 ",
"   c #101315",
".  c #040404",
"X  c #0B0503",
"o  c #0B0C0C",
"O  c #070908",
"+  c #140904",
"@  c #190B05",
"#  c #130907",
"$  c #1B130B",
"%  c #17110B",
"&  c #141414",
"*  c #161919",
"=  c #1B1D1C",
"-  c #1A1817",
";  c #260C04",
":  c #370706",
">  c #2C1206",
",  c #27180B",
"<  c #341405",
"1  c #3B1D0C",
"2  c #251B12",
"3  c #281B16",
"4  c #341D14",
"5  c #1D201F",
"6  c #342214",
"7  c #3C2613",
"8  c #37261A",
"9  c #312116",
"0  c #1E2120",
"q  c #222423",
"w  c #262A2A",
"e  c #2A2D2C",
"r  c #26272A",
"t  c #3E332A",
"y  c #2E3333",
"u  c #313534",
"i  c #353A3B",
"p  c #393C3D",
"a  c #363737",
"s  c #2C3030",
"d  c #551612",
"f  c #4E1208",
"g  c #701407",
"h  c #41230D",
"j  c #4A2B0D",
"k  c #52280A",
"l  c #543B0D",
"z  c #422C14",
"x  c #482B17",
"c  c #473419",
"v  c #593A1C",
"b  c #573418",
"n  c #542914",
"m  c #672509",
"M  c #6A350F",
"N  c #75370D",
"B  c #643717",
"V  c #753014",
"C  c #4A2F21",
"Z  c #4C342A",
"A  c #5D3D2B",
"S  c #553626",
"D  c #4D372D",
"F  c #3B403F",
"G  c #51491B",
"H  c #65421F",
"J  c #78410E",
"K  c #4D4536",
"L  c #564A36",
"P  c #694723",
"I  c #795C39",
"U  c #71502E",
"Y  c #7A633E",
"T  c #3B3F41",
"R  c #323C40",
"E  c #3D4243",
"W  c #3A4546",
"Q  c #2B6162",
"!  c #414545",
"~  c #424748",
"^  c #444A4B",
"/  c #494D4E",
"(  c #4A4B44",
")  c #4A4F50",
"_  c #4C5253",
"`  c #465658",
"'  c #515556",
"]  c #5B5D5D",
"[  c #545859",
"{  c #595248",
"}  c #625F5C",
"|  c #7A765A",
" . c #706852",
".. c #515E60",
"X. c #566769",
"o. c #586C71",
"O. c #5D7275",
"+. c #4F6166",
"@. c #636362",
"#. c #666969",
"$. c #6B6D6D",
"%. c #676864",
"&. c #627274",
"*. c #687678",
"=. c #797B78",
"-. c #63706F",
";. c #881003",
":. c #AC1904",
">. c #B50F03",
",. c #833D12",
"<. c #9F2507",
"1. c #A72B05",
"2. c #C50F03",
"3. c #D01304",
"4. c #9A480B",
"5. c #824717",
"6. c #964A12",
"7. c #944813",
"8. c #8F5815",
"9. c #BC520F",
"0. c #A84E13",
"q. c #B85716",
"w. c #AF5411",
"e. c #A8670B",
"r. c #AE601D",
"t. c #92572A",
"y. c #815324",
"u. c #84653D",
"i. c #966939",
"p. c #98602C",
"a. c #AD763F",
"s. c #B86C33",
"d. c #C5580E",
"f. c #C55A12",
"g. c #D55F10",
"h. c #C86419",
"j. c #D66313",
"k. c #DB721F",
"l. c #E66613",
"z. c #E76A15",
"x. c #E5731C",
"c. c #DE7B2A",
"v. c #C46F24",
"b. c #E97B26",
"n. c #9B7548",
"m. c #8D7051",
"M. c #9A7A50",
"N. c #866C49",
"B. c #A97D48",
"V. c #76817D",
"C. c #818439",
"Z. c #E9812A",
"A. c #EA8A37",
"S. c #EB933F",
"D. c #87855C",
"F. c #AA865A",
"G. c #B68A57",
"H. c #AF8957",
"J. c #BF9560",
"K. c #A68D75",
"L. c #B9B977",
"P. c #B2AE79",
"I. c #8D9266",
"U. c #CA975B",
"Y. c #D19857",
"T. c #CC9249",
"R. c #EC9746",
"E. c #F09F51",
"W. c #DBA15C",
"Q. c #F0A14F",
"!. c #EEAB5B",
"~. c #E8A456",
"^. c #F0AA5C",
"/. c #EEA14F",
"(. c #C89A64",
"). c #D2A36A",
"_. c #DDA867",
"`. c #DBAC72",
"'. c #ECAE63",
"]. c #E5AC6A",
"[. c #E7AD67",
"{. c #EDB166",
"}. c #EEB46C",
"|. c #F0B46C",
" X c #F2B165",
".X c #EFBA7C",
"XX c #EBB575",
"oX c #F1B773",
"OX c #F1BC7C",
"+X c #F2B973",
"@X c #F0AD60",
"#X c #637A80",
"$X c #6F8589",
"%X c #74898B",
"&X c #6C8C93",
"*X c #77949A",
"=X c #738F94",
"-X c #7A9AA0",
";X c #7EA2A9",
":X c #878888",
">X c #819A9F",
",X c #BAB981",
"<X c #849BA0",
"1X c #89A5AA",
"2X c #93ACAE",
"3X c #85ADB5",
"4X c #92ADB2",
"5X c #8CB4BC",
"6X c #96B2B7",
"7X c #A4A4A4",
"8X c #F1BE81",
"9X c #F2C184",
"0X c #E2E49C",
"qX c #9FBEC4",
"wX c #8EB8C1",
"eX c #A4C4C9",
"rX c #A6C7CC",
"tX c #AFD1D7",
/* pixels */
"                                  . O . .                                                 ",
"                            o * q w e q = = q &                                           ",
"                        o = e u u i i p i e e ! a =                                       ",
"                    . * e y u u i i p p T E y y / ' ! &                                   ",
"                  O q y y u u i i p p T E E E u p / ' ] e                                 ",
"                . = y y y u a i p p T E E E ! ! y _ ~ _ #.F .                             ",
"              . * w y y u u i i p T E E E ! ~ ~ E E [ ~ / $.~ .                           ",
"              * q q y y u i i p p E E E ! ~ ^ ^ ^ i ] / ^ / $.E                           ",
"            o e 5 = y y u i i p T E E ! ~ ^ ^ / / E / [ / ^ _ *.e                         ",
"            q w 5 * e u u i i p T E E ! ~ ^ / / _ ^ ! ] ) / ^ [ #.&                       ",
"          o u 0 0 & w u u i p p E E ! ! ^ ^ / ) _ _ T ] _ ) / ^ $.!                       ",
"          q u 5 0 = e u u i p p E E ! ~ ^ ^ / _ _ _ E [ _ _ / ^ _ #.&                     ",
"          u w 5 0 0 w u u i p p E E ! ~ ^ ^ / _ _ ' ^ _ _ _ / ^ ~ #.a                     ",
"        o a q 0 0 0 0 y u i i p E E E ! ! ~ ^ / _ _ / / _ ) / ^ ~ ' '                     ",
"        * a 0 0 0 0 5 w u i i p a u i E W ~ ~ E E T T ~ / / / ^ ~ ^ ] &                   ",
"        q u 5 0 0 0 0 0 q u y y [ %X2XqXeXeXeXeX6X1X$X+.E E ^ ^ ~ ! ] q                   ",
"        w s 5 0 0 0 0 0 * = ` 2XrX6X=X&.@.} %.=.:X2XrXtX4X..p ~ ! E ' e                   ",
"        w e 5 0 0 0 0 0 = ` eX>X! v 7.w.9.d.d.d.9.q.s.K.6XrX&.i E E / e                   ",
"        w e 5 0 0 0 0 = W 5X*.m ;.m d.z.z.z.l.l.l.l.l.j.t.V.eXo.i E ! e                   ",
"        w e 5 0 0 0 = w ;X=Xd >.3.:.m 9.l.l.z.z.j.g.l.l.l.7.*.qX^ i E q                   ",
"        q w 5 0 0 0 = o.5XD f g ;.2.:.m v.A.S.R.I I b.l.l.g.B *X*Xu i *                   ",
"        = w 5 0 0 5 y 5XO.,.l G z f :.1.B T.~.T.Q  .Q.A.w.m ;.Z 6X~ e o                   ",
"        * w 5 0 0 = o.3XA d.l C.L.Z : g <.V V a.n.B.T.p.m >.2.f $X&.0                     ",
"          r 0 0 = w 3XO.6.x.y.D.0Xm.d K b g V Y.!.U M V <.;.g : +.$X&                     ",
"          = 0 0 = ` wXL h.R.W.Y D.,XP.L. .u._. X Xi.d n : 7 c 2 o.O..                     ",
"          & 5 5 0 =X*XJ Z.'.}.].F.L m.M.J.}.|.].[.Y.L I.A G c = $X`                       ",
"            * = i 5X#.q.R.|.|.oX_.F.XXOXOXOX+X(.U.{.u.| D.U b q >Xi                       ",
"            & = X.wXU k.!.|.|.oXXXXX8X8XOXOXOX].H.G.W.P I s.M E %X                        ",
"              = *X-X6.b.^.{.}.XX.XOX8X9X9X8XXX).`.M._.B.~.A.k X...                        ",
"              y 3X=.f.x.S.'.}.|.XX).J.(.`..X.X(.B.G.'.W.!.c.x o.                          ",
"                *X{ 9.z.x.A.!.|.].U.(.(.F.H.`.oX}.|.{.'.^.h.K `                           ",
"                  0 > ,.j.x.Z./.{.}.oXoX.X).G.[.{.{.'.!.A.,.p                             ",
"                . O o o 1 7.h.x.A.E.'.|.{.|.[.[.{.^.Q.Z.6.2                               ",
"              o = y u & * q 6 M 0.h.c.A.R.E.Q.E.R.c.q.N $ o                       6 %     ",
"          O * q u E q * u E i w = 9 j M 5.6.6.7.N k >                       . % c H $     ",
"        = = i i * & q y ~ ^ ! E y T e q = .                               $ 6 3 3         ",
"      ( &XW E w . 0 u i ) / ^ E u ! u y e .                             7 P v % * & q &   ",
"  1 r.a.-.1X) . o e y E _ / ^ E a E u y u .                         2 v P z   e a e u q   ",
"  6.R..XJ.| _ . % q e ! _ / ~ p a p u y u O                     @ x P b       =.:Xu u e   ",
"@ w.Q.OXOXG.  + , , 3 u T ! E y u a u e y &                   6 H P 6         ] 7X! e u * ",
"  k v.!.).L   O % , h n x 8 z J b w s w w r =             % b P c             e 7X$.! a * ",
"    h 5.v     +.R * - 2 h h 4.4.e.7 9 6 , F $XE         7 B v ,                 :X:X@.] e ",
"              &X1X#XW w 5 2 e.4.e.j x x 1 a | H.m.* q v H 7                     m.:X@.#.e ",
"                y *.2X<X*.E z 8.l & & & $ 5.Y.M.N.{ } 7                         V.$.~ /   ",
"                $ 4 t X.1X&.. 0 *.O.X.o.( t.I  .N.U q                           :X$.] u   ",
"              X , 7 x x 8     - -.*.&.&.p j t.i.p.1                           ! =./ /     ",
"              4 S A A S 8     6 C S S S t t b B 1                             @./ u &     ",
"              @ 4 S A S 8     4 x A S z 2 =                                 p / e &       ",
"              + ; < < < +     + ; < < < @                                 q a =           ",
"              + ; > < < > X . + ; > < < > X                             . & o             ",
"              . X + @ @ @ X   X + + + + X .                                               ",
"                      .                                                                   "
};
