/* XPM */
static char *result[] = {
/* columns rows colors chars-per-pixel */
"45 44 243 2 ",
"   c #101315",
".  c #4D372D",
"X  c #773325",
"o  c #743136",
"O  c #5C310E",
"+  c #644530",
"@  c #7B1A5F",
"#  c #763448",
"$  c #652A59",
"%  c #673156",
"&  c #743553",
"*  c #7A1963",
"=  c #5E327C",
"-  c #592E75",
";  c #663266",
":  c #6C2D78",
">  c #63347D",
",  c #663576",
"<  c #732E71",
"1  c #734D4D",
"2  c #76447B",
"3  c #7C6254",
"4  c #8B3A07",
"5  c #933D06",
"6  c #8A3B19",
"7  c #88392F",
"8  c #964401",
"9  c #9C4C00",
"0  c #9D4508",
"q  c #9D5802",
"w  c #A84B01",
"e  c #B34805",
"r  c #A35501",
"t  c #A35D00",
"y  c #AC5700",
"u  c #B55B00",
"i  c #BC5E01",
"p  c #B45100",
"a  c #B64912",
"s  c #AA6402",
"d  c #B86900",
"f  c #AC7400",
"g  c #A37101",
"h  c #B57201",
"j  c #BA7E00",
"k  c #B77701",
"l  c #A76316",
"z  c #A97612",
"x  c #8B4931",
"c  c #AF4D2C",
"v  c #C65701",
"b  c #DA5A03",
"n  c #EE5C13",
"m  c #C76600",
"M  c #DB6600",
"N  c #CA7400",
"B  c #C37D00",
"V  c #D67A00",
"C  c #D46F11",
"Z  c #E96B01",
"A  c #E87801",
"S  c #FB7803",
"D  c #F56E13",
"F  c #CC562B",
"G  c #D16F31",
"H  c #EA6B2A",
"J  c #843451",
"K  c #88186A",
"L  c #8B1C71",
"P  c #C73F7D",
"I  c #8B5C51",
"U  c #896754",
"Y  c #924B70",
"T  c #AC5478",
"R  c #8C7776",
"E  c #B0665E",
"W  c #CD534A",
"Q  c #CF6656",
"!  c #D26C79",
"~  c #ED6D5C",
"^  c #AA8503",
"/  c #B58800",
"(  c #BC9200",
")  c #B49702",
"_  c #B58D0C",
"`  c #C68800",
"'  c #D78602",
"]  c #C99803",
"[  c #D29900",
"{  c #C99519",
"}  c #EA8900",
"|  c #F68E00",
" . c #FE8B02",
".. c #FE8C0C",
"X. c #FD8304",
"o. c #E89700",
"O. c #FE9703",
"+. c #FB9B01",
"@. c #FF980C",
"#. c #FE9814",
"$. c #F68E11",
"%. c #CBA401",
"&. c #D8AA00",
"*. c #D7B503",
"=. c #CDAE16",
"-. c #E7A700",
";. c #FEA403",
":. c #FDAC01",
">. c #FAA606",
",. c #E7B901",
"<. c #FDB302",
"1. c #FDBC02",
"2. c #FFB30B",
"3. c #F6BB02",
"4. c #FFA718",
"5. c #FFB816",
"6. c #EFBA1E",
"7. c #C78121",
"8. c #FF9D2E",
"9. c #F78236",
"0. c #EA8A24",
"q. c #F9B32F",
"w. c #D8C802",
"e. c #E8C801",
"r. c #FFC302",
"t. c #FDCC00",
"y. c #F9C905",
"u. c #E9D804",
"i. c #FCDB03",
"p. c #FBD606",
"a. c #FFC918",
"s. c #FED81B",
"d. c #FEE202",
"f. c #FAE808",
"g. c #FDF30A",
"h. c #FFE816",
"j. c #FFF617",
"k. c #EBE30C",
"l. c #FEC425",
"z. c #FCD829",
"x. c #FFF424",
"c. c #FFFC33",
"v. c #EC8C4D",
"b. c #F2A957",
"n. c #DB966D",
"m. c #F7876C",
"M. c #D99B58",
"N. c #FFC24B",
"B. c #663682",
"V. c #683782",
"C. c #6C3B84",
"Z. c #693A84",
"A. c #763B88",
"S. c #773F93",
"D. c #764A88",
"F. c #77558C",
"G. c #7A4495",
"H. c #6D4085",
"J. c #7D608E",
"K. c #7D6091",
"L. c #8A3289",
"P. c #D13FA6",
"I. c #D53E85",
"U. c #834A9E",
"Y. c #87528A",
"T. c #AE5494",
"R. c #897296",
"E. c #B16B90",
"W. c #854AA2",
"Q. c #8B4DA8",
"!. c #8D56A9",
"~. c #9656AD",
"^. c #9958B6",
"/. c #A55CB8",
"(. c #AD5CAB",
"). c #996AAB",
"_. c #A366BD",
"`. c #AF6EB1",
"'. c #C57698",
"]. c #D57799",
"[. c #CC6698",
"{. c #E97A8F",
"}. c #CE50B4",
"|. c #D678A9",
" X c #C972AF",
".X c #DA54A7",
"XX c #AC63C3",
"oX c #A965C7",
"OX c #B369CD",
"+X c #B966C9",
"@X c #BD6ED4",
"#X c #B66CD2",
"$X c #BD75DC",
"%X c #B974D7",
"&X c #AC73C6",
"*X c #C376DB",
"=X c #CB6CCB",
"-X c #C47BE2",
";X c #C778E3",
":X c #958A94",
">X c #AC9A98",
",X c #9D9AA9",
"<X c #9B96A6",
"1X c #958BA2",
"2X c #A39DAA",
"3X c #A086B1",
"4X c #A3A1AF",
"5X c #AFA0A1",
"6X c #AAA6B5",
"7X c #B3AFBB",
"8X c #B5B1BD",
"9X c #B2A9AF",
"0X c #C48591",
"qX c #D983A5",
"wX c #E98AB9",
"eX c #F190B5",
"rX c #C8AABE",
"tX c #ECB1A6",
"yX c #BCB8C5",
"uX c #B496C8",
"iX c #CA8AD2",
"pX c #F08CCE",
"aX c #C3BCCA",
"sX c #DAA3CA",
"dX c #F9A8CB",
"fX c #D194E4",
"gX c #DBB9EC",
"hX c #EAB3E4",
"jX c #C5C2CF",
"kX c #C9C4D3",
"lX c #CBC8D6",
"zX c #D2CEDD",
"xX c #D4D1DD",
"cX c #DBD9E5",
"vX c #DACEE6",
"bX c #EDDAF6",
"nX c #E1D6EC",
"mX c #E4E2EE",
"MX c #EBE8F4",
"NX c #F1EFFB",
"BX c #FDFCFF",
"VX c #F6F4FD",
"CX c #101315",
/* pixels */
"CXCXCXCXCXCXCXCXCXCXCXCXCXCXCXCXCXCXCXCXCXCXCXk.CXCXCXCXCXCXCXCXCXCXCXCXCXCXCXCXCXCXCXCXCX",
"CXCXCXCXCXCXCXCXCXCXCXCXCXCXCXCXCXCXCXCXCXCXCXu.CXCXCXCXCXCXCXCXCXCXCXCXCXCXCXCXCXCXCXCXCX",
"CXCXCXCXCXCXCXCXCXCXCXCXCXCXCXCXCXCXCXCXCXCX] i.x.CXCXCXCXCXCXu.CXCXCXCXCXCXCXCXCXCXCXCXCX",
"CXCXCXCXCXCXCXCXCXf.CXCXCXCXCXCXk.CXCXCXCXCX[ t.j.CXCXCXCXCX&.f.CXCXCXCXCXCXCXCXCXCXCXCXCX",
"CXCXCXCXCXCXCXCXCX*.g.j.CXCXCXCXe.j.CXCXCXh } <.z.CXCXCXCX] ,.f.CXCXCXCXCXCXCXCXCXCXCXCXCX",
"CXCXCXCXCXCXCXCXCX( e.i.s.CXCXCX*.g.c.CXCXd } ;.5.CXCXCX` &.t.h.CXCXCXCXCXCXCXCXCXCXCXCXCX",
"CXCXCXCXCXCXCXCXCX/ [ 3.y.l.CXCX%.i.j.CXCXp Z  .4.b.CXd ' :.t.s.CXCXCXCXCXCXCXCXCXCXCXCXCX",
"CXCXCXCXCXCXCXCXCXCXk } >.2.4.{ ( ,.i.z.E E Q Q Q 8.u N o.:.1.z.CXCXCXCXCXCXCXCXCXCXCXCXCX",
"CXCXCXCXCXCXCXCXCX,.k m } @...' j -.r.y.n.)._._.R.a v Z | ;.2.CXCXCXCXCXCXCXi.g.CXCXCXCXCX",
"CXCXCXCXCXCXCXCXCX%._ y M Z G c h ' :.2.5.0X^.XX~.c b Z  .O.4.l.x.CXCXo.3.f.j.j.CXCXCXCXCX",
"CXCXCXCXCXCXCXCXCXj d 0 4 J , x s N | @.>.v.(.XXoX(.W S S X.8.6.#.A O.>.a.h.h.CXCXCXCXCXCX",
"CXCXCXCXCXCXCXCXCXh t X ; > - 6 p v A  ...Q /.XXOXOX+X[.~ H m.qXn X.#.5.a.y.CXCXCXCXCXCXCX",
"CXCXCXCXCXCXCXCXCXCXx , > > = % 0 e b n Q /.XXXXOX@X#X=X*X=X|.pX{.D 4.5.2.l.CXCXCXCXCXCXCX",
"CXCXCXCXCXCXCXCXCXCX, > C.G.G.G.D.Y Y T.^.XXXX+X#X(.P.P.}.*X;X.XpXv.#.#.4.CXCXCXCXCXCXCXCX",
"w.u.d.d.i.r.2.>...F ; C.A.S.G.U.Q.Q.^.^.^.oXXXOX+XP.P.I.F Q G 7.{ { =.6.CXCXCXCXCXCXCXCXCX",
"CXCX*.e.r.r.1.;.@.C < 2 F.).!.G.Q.~.!._.&XOXoXOX+XP.P.F i m j ` ( ) =.CXCXCXCXCXCXCXCXCXCX",
"CXCXCX( [ o.+.@.| F , K.6XjXxXuXQ.G.3XlXmXmXgX%X+X}.P e p d h / ( ] tXCXCXCXCXCXCXCXCXCXCX",
"CXCXCXCXh h N A M x D.<X7XjXxXNX).1XlXnXMXVXBXgX%X=XT.e p d d B ] n.hXtXCXCXCXCXCXCXCXCXCX",
"CXCXCX^ g s y y 4 % :X,X7XjXlXMXjX7XzXcXMXVXBXVXfX$XOXc p i m B v.*XwXD ..#.CXCXCXCXCXCXCX",
"CXCX) ^ g q 9 5 o H.1X4X7X,X9XmXlXyX8XzXmXNXVXBXgX$X-XE.a v m G  X;X{.S O.O.<.1.p.i.h.CXCX",
"CXCXCX/ f s 9 o - F.<X4X4XR x jXjX:XU >XcXNXVXBXbX$X-X-X XW Q  X;X;X{.S ..+.:.r.t.i.d.f.g.",
"CXCXCXCXCXs w # B.F.<X4X:X. O 5XyX1 . U cXmXNXBXMX$X$XiX-X;X;X;X;X;X[.S X. .+.>.-.,.,.CXCX",
"CXCXCXCXCXCXCX& B.F.,X4X:X  O 5XyX+   3 cXmXMXBXbX%X%X$X*X-X-X;X*X@X|.n Z A ' ' CXCXCXCXCX",
"CXCXCXCXCXCXCX> B.D.<X4X4X3 U yXyXR + >XxXmXMXVXvXOX%X%X$X*X*X*X*X*XiXF v m CXCXCXCXCXCXCX",
"CXCXCXCXCXCXCXCX$ Z.1X,X4X6X7XyX2X6X8XlXzXcXmXNXfXoX#X#X@X=X=X#X@X#XfXsXCXCXCXCXCXCXCXCXCX",
"CXCXCXCXCXCXCX5 X , K.<X4X,X:XE.E.0XrXjXlXzXmXvXoXoXoXOX`.[.!  XOX%XfXdXCXCXCXCXCXCXCXCXCX",
"CXCXCXCXCXt 9 8 4 % B.J.1X:XR qXeXdXeXsXyXkXyX&X^.oXoX(.H S X.b.`.}.pXm.8.CXCXCXCXCXCXCXCX",
"CXCXCXCX` B s 9 8 X > > = 2 [.'.].dXdX`.R.R.!.Q.^._.!.c Z X.O.>.n.}.wX9.4.q.CXCXCXCXCXCXCX",
"CXCXCX&.-.:.' r 8 4 ; B.B.Y '.T # qXdX'.A.W.~.^.^.^.Y e v A +.<.l.pX~ $.q.5.z.CXCXCXCXCXCX",
"CXCX,.t.r.<.' t 9 5 % B.Z., E.].T ].eXT.S.W.Q.Q.^.!.& w u N o.<.p.b.n A O.2.s.j.CXCXCXCXCX",
"CXe.y.e.,.[ f t r CX$ > Z.B.D.T.'.'.E.A.L.L.L.W.Q.G.$ 0 d d / -.t.s.C m V o.3.h.j.CXCXCXCX",
"CXCXCXCXCXCXCXCXCXCXCX* : Z.V.C.: A.C.V.K K L L.W.S.- % x l h / *.i.z.CXCXB [ &.u.f.CXCXCX",
"CXCXCXCXCXCXCXCXCXCXCXCX@ : Z.B.B.= B.< K K K L A.> > = D.).E { ) *.f.CXCXCXCXCXCXCXCXCXCX",
"CXCXCXCXCXCXCXCXCXCXCXCX0 7 : B.$ # J J K @ K < > B.C.G.~.! 9.CXCXCXw.CXCXCXCXCXCXCXCXCXCX",
"CXCXCXCXCXCXCXCXCXCXCXCXy 9 6 # 6 w M D H c ; , Z.D.D.Y F ..4.b.CXCXCXCXCXCXCXCXCXCXCXCXCX",
"CXCXCXCXCXCXCXCXCXCXCXCXs 9 9 8 w m A @.@.C 1 $ & I 6 w Z  .2.l.CXCXCXCXCXCXCXCXCXCXCXCXCX",
"CXCXCXCXCXCXCXCXCXCXCXCXf s q l u m o.4.4.0.l q s q.CXw d | 2.a.CXCXCXCXCXCXCXCXCXCXCXCXCX",
"CXCXCXCXCXCXCXCXCXCXCXCX^ g z CXs B >.5.2.CXCXf { CXCXCXs ' <.p.CXCXCXCXCXCXCXCXCXCXCXCXCX",
"CXCXCXCXCXCXCXCXCXCXCX) ^ _ CXCXCX[ 3.t.a.CXCX) =.CXCXCXCXj -.i.c.CXCXCXCXCXCXCXCXCXCXCXCX",
"CXCXCXCXCXCXCXCXCXCXCX) ) CXCXCXCX[ p.s.CXCXCXCX*.CXCXCXCXCX] u.j.CXCXCXCXCXCXCXCXCXCXCXCX",
"CXCXCXCXCXCXCXCXCXCXCXCXCXCXCXCXCX*.d.h.CXCXCXCXCXCXCXCXCXCXCX*.g.CXCXCXCXCXCXCXCXCXCXCXCX",
"CXCXCXCXCXCXCXCXCXCXCXCXCXCXCXCXCX*.g.CXCXCXCXCXCXCXCXCXCXCXCXCXu.CXCXCXCXCXCXCXCXCXCXCXCX",
"CXCXCXCXCXCXCXCXCXCXCXCXCXCXCXCXCXe.g.CXCXCXCXCXCXCXCXCXCXCXCXCXCXCXCXCXCXCXCXCXCXCXCXCXCX",
"CXCXCXCXCXCXCXCXCXCXCXCXCXCXCXCXCXk.CXCXCXCXCXCXCXCXCXCXCXCXCXCXCXCXCXCXCXCXCXCXCXCXCXCXCX"
};
