/* XPM */
static char *result[] = {
/* columns rows colors chars-per-pixel */
"45 45 96 2 ",
"   c gray1",
".  c #0C0C0C",
"X  c #0B150B",
"o  c #0F1C0E",
"O  c #11140F",
"+  c #141414",
"@  c #131B11",
"#  c #191C16",
"$  c #1C1C1C",
"%  c #162315",
"&  c #1A2217",
"*  c #1D241C",
"=  c #1D2B1C",
"-  c #1D3619",
";  c #173919",
":  c #1B3D1B",
">  c #2F2E18",
",  c #25361B",
"<  c #2A3319",
"1  c #243A1C",
"2  c #293E1C",
"3  c #242424",
"4  c #232B22",
"5  c #292D26",
"6  c #2C2C2C",
"7  c #253224",
"8  c #283327",
"9  c #253C22",
"0  c #293927",
"q  c #2B342A",
"w  c #2C392A",
"e  c #31362B",
"r  c #333B2B",
"t  c #333333",
"y  c #353B34",
"u  c #3A3F34",
"i  c #3A3A3A",
"p  c #1F411D",
"a  c #23441E",
"s  c #25491F",
"d  c #254720",
"f  c #284721",
"g  c #264A21",
"h  c #2A4D22",
"j  c #344525",
"k  c #364F24",
"l  c #35442B",
"z  c #39452D",
"x  c #344F2B",
"c  c #3A4B2E",
"v  c #2D5323",
"b  c #315625",
"n  c #335926",
"m  c #365529",
"M  c #3B532B",
"N  c #375C28",
"B  c #3B5C2B",
"V  c #354230",
"C  c #3B4233",
"Z  c #3D4B32",
"A  c #3D632B",
"S  c #41562C",
"D  c #40592E",
"F  c #434E38",
"G  c #425135",
"H  c #455B33",
"J  c #4A5D36",
"K  c #475D38",
"L  c #495A3A",
"P  c #43652E",
"I  c #43692E",
"U  c #446531",
"Y  c #4C6435",
"T  c #466A30",
"R  c #4A6D33",
"E  c #4D6439",
"W  c #506A36",
"Q  c #506738",
"!  c #546D3B",
"~  c #4C7434",
"^  c #517536",
"/  c #527936",
"(  c #557639",
")  c #5B763D",
"_  c #557B39",
"`  c #5B7D3C",
"'  c gray25",
"]  c #5E7840",
"[  c #578038",
"{  c #5C823B",
"}  c #62833F",
"|  c #61883E",
" . c #648241",
".. c #658A41",
"X. c #698E43",
"o. c #6C9444",
/* pixels */
"t 6 $ + 4 r W { o.o.{ R E [ C ! o.X.L } C ] ] X.D G H t H n 7 . ] { C 6 C c R Z U @ t t t ",
"t 6 . l ) X./ / { A { ..{ ~ _ A /  .R ~ R ] 1 ~ ! ^ U ~ b B Y Y ~ { A V ] { U t 0 t i y 6 ",
"t 5 Z { | _ R A A n A ~ A A A n A A T A A A x N U A A I v N I I B A B n A ~ m l d d 7 7 * ",
"& D ` / I s N v g v h v h v h g v v h v g g v h v h v s h v v h v h d v h v A ~ A n N I j ",
"B ^ R n s : s a ; p d p p d : : a p p g p ; a : 1 a f : : p p 1 d p ; a p p v A I B B L Z ",
"Z U I v a : p a : p : ; ; 7 : p : ; ; p : : : ; < < d : p : - < p 9 : p ; ; p n T ~ / ^ H ",
"M ^ I v d : X       .             .         .         t   3 3 4 + 3 i 6 6 < 0 d b I / { E ",
"l ( ~ n a : q i t t t t y i i t 3 i t i 6 i y t t 5 3 6 6 t t t i t t t 3 6 7 d b A ~ ~ H ",
"C ! U b a ; q   i t t t i t 6 i t 3 t t 6 t   +   t t t . t   6 i .   6 t 3 7 p s n I / S ",
"3 l m v d a 4 3 3 t i t 6 + + i t . t t i i t + + 6 6 3   t   t 6 3 3 6 t t w ; p b R | ! ",
"e B B h : : & + 6 6 + t t 3 i   i t +     . . . + i   + 3 t . t 3 6   + 6 6 o p s b A / Y ",
"H { I v a 1 # 6 t i 6 t i t . . i t i t i t i + $ 6 $ + t 6 + 6 6 $   $ 3 6 4 p a n ~ [ S ",
"E ( P v s a & 6 6   t t t ' t $ t i $ i t + 3 i . $ + 6 i t $ t t $ $ $ t 3 4 : s A / _ G ",
"+ M P b a < . 6 $ 3   t 6 t t + t t $ i   6 t t   t 3 t 6 6 3 6   3 6   . 6 X : a b R / j ",
"8 S P n s : & i 6 i t t t 6 t   t + $ + + .   i 3 6 3 + + t   + i $ + + + t 8 9 d n I / D ",
"x B N b s 1 q t i i i i t t t t t i t t i 6 3 3 6 t t t 3 t t 3 3 3 t 3 t i 7 : p b T Y 5 ",
"c m v v p a 4 6 3 t t 6 6 t i 6 3 3 6 6 i t t t 6 6 t t i i t t t t t t t 6 7 p p v A U H ",
"t H U v p : q t t t t t 6 t i t t t t t 3 t t t t t 6 6 i t 3 t 6 t 6 t 3 3 4 : h b A { W ",
"c U A b d d & 6 t t t 6 6 + i i + 6 i i $ t t t 3 t t 6 6 t $ i t t 6 + t   4 : d b ~  .W ",
"V Y I b d , 5 3 i y t   t . 3 t 3 3 $ i 3   $ t 3 t i 6     3 6 t t 3 t 6 3 4 ; d n T R r ",
"Z Y R b d , r t i t   3 $ i t t t t i t 3 t t t i t   t t t 3 t t . $ 6 t t 8 a h v I ^ S ",
") ( A v p ; q $ + 6 3 t $ 6 $ 6 6 t i t 6 t 6 t t t . 6 i 6 3 t t   + 3 + t 8 : a n T J w ",
"Q x k h g : q t t $ 3 6 . t t 6 t 6 i 6 . t 6 t t $   t t 6 $ t t + + 3 3 t 8 : : h U ) S ",
"c ] U v : : @   i 3 t 3 3 y t t i t i t i i t 6 6 t t t 6 t t i 6 6 $ 6     q : g v h M L ",
"u J I b a : r t t t t i i 6 6 6 t t t y t t 6 t $ t t t i 6 t t 6 6 6 6 6 t 8 : a v A _ W ",
"D ( I n h a y t t i ' i 6 t               . +   . t . 3   $ 6 i 6 3   3 t 3 4 < a n R Y z ",
"G Y R n a : 0 t t t 6 t i t t 6 $ 3 6 6 6 6 t 6 6 6 6 t 3 3 3 y 3 6 $ 6 6 6 4 , d b I Y C ",
"!  .R n g ; X   i i 3 i   t i i t t t   t 6 t 6   3 t t t t t   . t 6 t 6 6 8 d d b I U Z ",
"! { A b g p * 3 t 6 t t 3 t t 6 y 6 6   t t 6 6 6 t t $ y t 6 6 6 6 6 t     X : p v I H 6 ",
"x T A v p p w 3 t t t t 3 t i i t 6 3 3 6 6 3 3 3 t t i t 6   $ t 6 6 t 3 3 8 p a h v m Z ",
"w E ~ b p : w 3 6 t 6 t $ t t i t 3 3 6 t t 3 3   t $ . 6 . 3 . t t 6 6 6 3 w : a v B B h ",
"H ~ A n g 9 y $ 3 6 6 t 3 t 3 t . 3 + t t 3 3 3 3 t t 6 6 6 3 6 t t 3 6 6 6 O 1 a b I H 4 ",
"j ( R v p : 0 $ t $ . i 3 6 3 6 6 $ 3 6 y $ 3 $ 6 6 t 6 6 t 6 6 6 $ $ 6 6 + # < a b I c O ",
"G ` / A d : q $ t 3 t t t t 3 6 t 3 6 3 t $ 6 3 $ 3 6 6 6 6 t 3 t t 6 3 +   X p d b P ^ J ",
"b [ ~ n d : %               .   .   . 3 t 6 $ 6 6 3 $ + . .   . + + 3 3 3 6 6 1 a v I ` U ",
"! / A v g p w t 6 6 6 6 6 6 t t t t i t t t 6 t 6 t 6 $ 3 3 3 6 6 3 3 6 3 3 4 ; : h B B r ",
"! | R v p : q 6 6 6 t 6 6 6 t t 6 6 t 6 3 t t t t 6 6 6 t 6 6 6 $ 6 6 + 6 t 8 d a v m l 6 ",
"E _ I n s p = t t 6 6 3 t 6     6 t 6 $ 6 6 6 3 6 t t $ 6 3 3 6 6 6 $ $ 6 3 4 ; a b U ! u ",
"L ^ R A v a o + . 6 . 6 t 6 6 6 3 6 t + t t 6 6 6 6 6 6 t 6   3 3 6   . . 3 . ; a N ~ ( l ",
"E { / I n s , 6 t 3 i     t t 6 6 + t 3 6 3 6 6 t 6 6 6 6 . 3 3 6 6 3 6 6 3 4 : a v P ( S ",
"M ^ / ~ T n %   6 t t 3 t 6 + 3 3 6 6 3 6 6 3 6 6 3 t 6 t 6 6 3 6 3 3 3 6 6 & : a v P U l ",
"V L B A I A l 3 + t 3 t t t 6 6 6 6 t $ t $ 6 6 i   6 6 3 3 $ 3 6 6 6   6 6 3 : a n ~ ^ M ",
"G I N n A ~ Z 6 . 6 6 t 6 6 +   $ . 6 6 3 3 $ 6 t 3 6 6 6 3 6 3 6 6 $ 3 6 3 * h I / ` B # ",
"5 5 7 d d l q 6 6 6 6 6 6 6 3 3 + 3 t 3 6 6 6 t 6 6 6 3 6 6 t 3 6 6 6 6 6 6 w _ ..{ c 5 6 ",
"6 y i r 0 t q 3 6 6 6 3 t t 6 6 3 6 6 6 t 6 6 6 6 6 6 $ 6 6 $ 3 $ 3 6 6 3 3 e X.) l . 6 6 "
};
