/* XPM */
static char *result[] = {
/* columns rows colors chars-per-pixel */
"45 45 82 1 ",
"  c #0B0B0B",
". c #141414",
"X c #131C14",
"o c #181B17",
"O c #1B1B1B",
"+ c #172116",
"@ c #1C221C",
"# c #1D281C",
"$ c #21241D",
"% c #1E3C21",
"& c #222222",
"* c #242B24",
"= c #292B26",
"- c #292929",
"; c #263127",
": c #2A3524",
"> c #213E22",
", c #2A3B22",
"< c #2C332C",
"1 c #2D3A2D",
"2 c #313420",
"3 c #30352E",
"4 c #33392F",
"5 c #333333",
"6 c #343B33",
"7 c #3C3D3C",
"8 c #254224",
"9 c #294626",
"0 c #294827",
"q c #2D4C28",
"w c #36442D",
"e c #39472E",
"r c #324D2A",
"t c #3A4D2D",
"y c #2F512A",
"u c #32542B",
"i c #3D522F",
"p c #36592D",
"a c #395B2F",
"s c #364430",
"d c #3A4433",
"f c #374F31",
"g c #3D4B34",
"h c #3D4338",
"j c #3D5431",
"k c #3C5C31",
"l c #3F6232",
"z c #404E37",
"x c #434F3A",
"c c #425432",
"v c #435A35",
"b c #495C36",
"n c #445139",
"m c #475A39",
"M c #4A5C3C",
"N c #446435",
"B c #496137",
"V c #456935",
"C c #496B37",
"Z c #4D643C",
"A c #4C6B3A",
"S c #51663D",
"D c #536B3E",
"F c #4D723A",
"G c #52753D",
"H c #55793F",
"J c #587D3F",
"K c gray26",
"L c #506140",
"P c #566C41",
"I c #586E42",
"U c #577541",
"Y c #5C7444",
"T c #577B40",
"R c #5B7C42",
"E c #637F47",
"W c #5C8142",
"Q c #628346",
"! c #658748",
"~ c #658848",
"^ c #698B4A",
"/ c #6C914B",
/* pixels */
"5=jhcZMZIPuxsv6eDPxbhcLPgdd5gf<OMB6-hscgk$655",
"7<VMGRUTWTTRUGZVWQZUMYjULANmjkvjUWkdPUGNGv555",
"7:kvTFCVAlFTCVCkVCCVVBrlAVNVukVVlVkpVFVlATg.&",
"68plFNNpyupkuppypppppquyaupurupuyfyfrpuupHRdo",
"1qlNCuuq800q0q88q0qq0%0899q88999q0%q00089V!Y=",
"6sFNa008>8%%%1>88%%08%8%:,9>>8>28>%8%%%8%qJ^w",
"53gs#;+;11#11666*X166@1543$6;4&.@@&;51O80aCGA",
"-5<- 3O555 &&&--- 555 6&5=35557355O- 7 80yNGR",
"55.o55.555 55-555755575O7757-75&555-75 >%0lW/",
"-5555-55-5 -&5555K577-&55757577- 7<575 >8yaV/",
"5-5-57.555 5.5575-5K55-- 755575 55O755.>8yVTW",
"-555- 5-55 5755557777-55- 355775755557 %8yF~Z",
"55555 555- 5--&-5 757-.&&5555575577577 >8qlWZ",
"5555555555 555555555-7557.O55555K5-O5h :0ylFR",
"5-O5O55 57.---57577 555&5-7777555o7O57 >%qVUh",
"-- 5-5- 55 5557K575 5555577555 O&. 775 8>qplP",
"-O&5-5-555.55.5575& 57555-O5-75577757- >9qNG^",
"5-.55O-555 -&--555- 75555-55-7O7755.-7.%8ulE!",
"-5-5555557.5-O&-555 5777K&7555&&&7O557 %8qVAL",
"5-5&--O&57--555-  5 7555577755O777 557 ,qyNFQ",
"55&55555&5577555555 57.5--&-77O 5K 75< >8qNAh",
"55-&--55575&&-55555.57755 7555.5O5.757 >%qjEY",
"-5&5-55555&-----555O55555&755- 5-K.5 7.>8uu9Y",
"55555-5-555-&---5-5 555557557-757O.OO5 >%qkC^",
"5-575555555&-- -5 5.&5577--555& .&OO 5 :,uVPv",
"55- &55555--55755&5555&575755555&-7555 20qkUn",
"555555-5-5&555&5575.75 . 75-55--O& 55- 90ylVm",
"O--5555&5&O-55.7&55-7555555577O55OO-755>%qVA5",
"-55-5-555-.55-5577- 75555 577-O575- .5 9>yypm",
"55-&5.5-5-.555.555-&55555 57755-557555->8yakk",
"&55&5- -5& 55-- 55-575&---&-75 -&OO  5->8yNZ:",
"------&555.--5.&5 57575755755-O5555555=2>qVZ.",
"&5-555-5&-O55755-.-5-55555755-7 75-<77O09ykFY",
"-5-5&5-53-O5&555555-<5O O5555-&-&&5-.5-:0qlWW",
"5-&5-- &5--5&-5555& 5&OO&-5557O5&  - 57>%9klh",
"55- -5.&O----555555-5---55O55-O &&O-55588ykd3",
"--55-5.<5--O5-5- -555 -O555-56O.5-555-5%8qlYh",
"-5-35---5-5 O5-- 55-5 655- -5753-555-5;%8yFWg",
"53&=&*.;<-<X@O5<X<==<6<<3;=;<;3X<;+1;;10ykjLA",
"^Yq>%8%%8%,92>>8>q,,%>>>9>%88%1%%>8%8qqplUd6g",
"Y!V988090%0q89988q9989>9q90q88q000080ppCllq1N",
"wRHpuupuuqyuuppquuupuurpppppuupuappyplVFla86O",
".zJANNFVkkVlVBkuVNVBNrNCNCAVaCVCHFlCCCGGkk;75",
"5=vGVFUPdkRUfvkjbVSSGiYmGZQWCZFYTJG~TFWGLV<66",
"<5&idbdd-6BZo;wg5zdzSMc3vwSSm=mwnkZPvnLmge&57"
};
