/* XPM */
static char *result[] = {
/* columns rows colors chars-per-pixel */
"45 45 90 1 ",
"  c gray1",
". c #0C0C0C",
"X c #0D160D",
"o c #0F1C0E",
"O c #141414",
"+ c #121A11",
"@ c #181D17",
"# c #1C1C1C",
"$ c #162315",
"% c #1A2217",
"& c #1C251C",
"* c #1D2B1C",
"= c #1D3619",
"- c #173919",
"; c #1B3D1B",
": c #2F2E18",
"> c #25371C",
", c #2A3319",
"< c #243B1C",
"1 c #293E1C",
"2 c #242424",
"3 c #252B23",
"4 c #2A2D27",
"5 c #2C2C2C",
"6 c #253423",
"7 c #283327",
"8 c #253C22",
"9 c #293927",
"0 c #2B352B",
"q c #2B382A",
"w c #31362C",
"e c #343D2B",
"r c #333333",
"t c #353B35",
"y c #3A3F34",
"u c #3A3A3A",
"i c #1F411D",
"p c #22441E",
"a c #25491F",
"s c #254720",
"d c #284721",
"f c #264A20",
"g c #2A4D21",
"h c #364F24",
"j c #35442B",
"k c #39452E",
"l c #344F2B",
"z c #3A4B2D",
"x c #2D5223",
"c c #315525",
"v c #335926",
"b c #355529",
"n c #3C522C",
"m c #365C28",
"M c #3B5C2B",
"N c #364330",
"B c #3B4234",
"V c #3D4B31",
"C c #3D632B",
"Z c #42562D",
"A c #40592E",
"S c #434E38",
"D c #445136",
"F c #455B34",
"G c #495A3A",
"H c #43652E",
"J c #436A2E",
"K c #446530",
"L c #4C6435",
"P c #466B31",
"I c #4A6D33",
"U c #4D6439",
"Y c #546D3B",
"T c #4C7433",
"R c #517537",
"E c #527936",
"W c #56763A",
"Q c #5B763E",
"! c #557B39",
"~ c #5B7D3C",
"^ c gray25",
"/ c #5E7840",
"( c #578038",
") c #5C823B",
"_ c #62833F",
"` c #61883E",
"' c #648241",
"] c #658B41",
"[ c #698D43",
"{ c #6C9444",
/* pixels */
"r5#.3eY){{(UU(BY{[G'B/Q[ZDFrFm6./)B5BVTzJ+rrr",
"r5.kQ[EE)J(])T!CE'ITI/1TYRKIcMLLT)CN/)EK!I355",
"r4z)`!ICCvJTCCJvCCPCJMxmKCCJxmJJMCMmCTCCL)F O",
"&A!!JamxfxfxfxagxxfxgfxgxgxffxxfxgsxfxfxxE]D.",
"MEIva-ap-piiif;;siifi-p;<is;;pp<si-;iisiiC]'7",
"VKCxpipi;i;--6;i;--i;;;-,,s;i;=:;6;s--;;-iE{e",
"ZTJxs;X   .      .    .    r 223O2u55,r5455r5",
"jWRvp-0urrrrtuur2uru5utrr5255rrrurrr25255 5r5",
"BYHxp-0 urrrur5ur2rr5r O rrr.r 5u. 5r22O525 O",
"2kbcpp322rur5OOur.rruurOO552 r r5225rrr5..25r",
"wMMg;;&O55Orr2u urO  ...Ou O2r.r25 O55    25#",
"F)Jxp<@5ru5rur..urururuO#5#Or5O55# #252222##O",
"URCcfp%55 rrr^r#ru#urO2u.#O5ur#rr###r25255555",
"OnJcp,.5#2 r5rrOrr#u 5rr r2r5525 25 .5 ## r  ",
"7ZHvp=&t5urrr5r rO#OO. u252OOr Ou#OOOr5255252",
"lMMca<0ruuuurrrrrurru5225rrr2rr222r2ru2r2  # ",
"zmxxii352rr55ru52255urrr55rrturrrrrrr55r25255",
"rFKxi;0rrrrr5rurrrrr2rrrrr55ur2r5r5r22225555#",
"kKCvfs%5rrr55OuuO5uu#rrr2rr55r#urr5Or 2 52552",
"NLKxs<42utr r.2r22#u2 #r2ru5  25rr2r522r5#r5 ",
"VULvs,erur 2#urrrrur2rrrur rrr2rr.#5rr555.r2 ",
"W!Cxi-0#O52r#5#55rur5r5rrr.5t52rr O2Or5O2255O",
"Uzgcs;0rr#25.rr5r5u5.r5rr# rr5#rrOO22r55555. ",
"ZQKgi;+ u2r22urrururuur55rrr5rru55#5  r5.2r#2",
"yFJcpierrrruu555rrrurr5r#rrru5rr55555r5r555r#",
"FWJcaatrru^u5r       .O .r.2 #5u52 2r22252#22",
"DLIvp;7rrr5rurr5#25555r5555r222t25#5552552222",
"Y_Ica-X uu2u ruurrr r5r5 2rrrrr .r5r555555 5r",
"R)Pvfi&2r5rr2rr5t55 rr555rr#tr55555r     ###2",
"zKmxiiq2rrrr2rtur52255222rrtr5 #r55r2255r#222",
"0UIci;q25r5r#rrur225rr22 r#.5.2.rr5552r252.O#",
"ZTCvf8t&255r2r2r.2Orr2222rr55525rr2555.O52.2#",
"z!Ixs-q#r#.u25255#25t#2#55r55r555##55OO255O2.",
"V)!Ms-7#r2rrrr25r252r#52#25555r2rr52O  ...52#",
"c(Tvpi%       . . .2r5#552#O.. .OO2225522222O",
"YECxsiqr555555rrrrurrr5r5r5#22255225222#222##",
"Y`Txi;0455r555rr55r52rrrr555r555#55O5r5225#52",
"U!Jvai*rr552r5  5r5#55525rr#522555##522O22 #5",
"GRICxpoO.5.5r55525rOrr555555r5 225 ..2   .522",
"L)EJca65r2u  rr55Or25255r5555.225525522255222",
"nRETPv$ 5rr2r5O22552552552r5r552522255#25 22#",
"BGCCCCj2Or2rrr5555r#r#55t 5522#2555 552O.2O#2",
"VPmvCEV5.55r55O #.5522#5r255525255#252#2O2222",
"466ssj0555555522O2r2555r555255r2555555252#222",
"5rut9t525552rr552555r555555#45#2#25522222.   "
};
