/* XPM */
static char *result[] = {
/* columns rows colors chars-per-pixel */
"45 45 81 1 ",
"  c #0B0B0B",
". c #141414",
"X c #141C15",
"o c #181817",
"O c #1B1B1B",
"+ c #172116",
"@ c #1C231C",
"# c #1D281C",
"$ c #20261E",
"% c #1E3B21",
"& c #222222",
"* c #222B22",
"= c #282827",
"- c #292929",
"; c #2B3524",
": c #213E22",
"> c #2A3C22",
", c #2D322B",
"< c #2D392D",
"1 c #313320",
"2 c #30352E",
"3 c #34392F",
"4 c #333333",
"5 c #343B33",
"6 c #3C3D3C",
"7 c #254224",
"8 c #294526",
"9 c #2A4927",
"0 c #2D4C28",
"q c #36432F",
"w c #39472E",
"e c #324E2A",
"r c #3A4D2D",
"t c #2F512A",
"y c #32532B",
"u c #3D522F",
"i c #36592D",
"p c #395B2F",
"a c #364430",
"s c #3A4433",
"d c #374F31",
"f c #3D4C34",
"g c #3D4338",
"h c #3D5331",
"j c #3C5B31",
"k c #3F6232",
"l c #404E37",
"z c #454F3C",
"x c #425333",
"c c #425934",
"v c #495C36",
"b c #46513A",
"n c #465B39",
"m c #4A5C3D",
"M c #446535",
"N c #486036",
"B c #456935",
"V c #496B37",
"C c #4D643C",
"Z c #4C6B3A",
"A c #50663D",
"S c #536B3F",
"D c #4D723A",
"F c #52753D",
"G c #55793F",
"H c #587E3F",
"J c gray26",
"K c #506140",
"L c #566C41",
"P c #586E42",
"I c #577541",
"U c #5C7544",
"Y c #577B40",
"T c #5B7C42",
"R c #637F47",
"E c #5C8042",
"W c #628246",
"Q c #658748",
"! c #658848",
"~ c #698A4A",
"^ c #6C914B",
/* pixels */
"4,hgfCKmILtfdc5rLLznghKLfsf4fd<OCn5=gacfh$564",
"6-VmFEFYEYYTIIKVEECFmUhICSNnhjchITjaLIFMFc-44",
"5;jjGDZBDkLYVBZiBZZBZNdkZMMByjNBMVjiMDMMZTfo$",
"58jkDBMityyjtiitiiyii0ttiyiy0yiyyy0dyiyyiFTqo",
"<9kMViy97999907709908:978897779809%979879B!I-",
"5aIkp997%7%:%8%77:%8:::%;>9777:17:%7%:::%0G~q",
"4<fs@;+*<<*<4545*X<5a@<<32$5-5*.@@*-<5O79pZGS",
"-,,= 4O544 &&&--= 454 4=4=44245444O- 6 77ykFE",
"44.o44o444 46-4446444J4O6644-64&444-64 :%0kE^",
"4,444-44-4 -&-4446664-&456644J6- 64444 77tiB^",
"444=46.444 4.4444-4J64-- 444464 44OJ66.:70BHY",
"=444- 4-44 466444J4J6--6- 464664644444 %7tD~K",
"44-44 4444 4--&=- 646-.&&4-446444J4466 %70kEC",
"4-4446444- 446644644-66-J.O64444J4-O56 >9tkDE",
"4-O4O44 44.-=-46664 444&4-6664444.6O,6 :%0BIg",
"4- 4-4- 46 44466-64 4444466446 O&. 6J4 7:0pkL",
"-O&4=4-446.44.4464& 46644-O4-44646646- :9tkG~",
"4=.44O4444 =&--444- 46-64-46-6O4J44o-6.%7tkWQ",
"-444-44446.4=O==444 46666&6446&&&6O644 %70VZK",
"4-4&--O&44--444=  4 644446J444O664 44J <0tkDW",
"44-4-444=6446464464 46.4--&-66O 5J 644 :70MSs",
"44-&4=44444&&-446-4.46464.4444.4O4.646 :%9jUU",
"44&4-44444&4-----44O444-4&464- 4-6o4 6.:7ty8U",
"444-4-4-444-&---444 444664464-646O.OO4 %70jZ~",
"-44646-4444&4= -4 4O&4446--444- .&oo 4 17tMLc",
"-4- =-4444==44444=4464&444444444&46444 ;70kIb",
"44446-44-4&444&4444.44 O.64464--O& 46= 99ykMn",
"&--4-44&4&O444.6&44-644-444444O44Oo=444::9VS4",
"444-64444-o--44464- 64464 466-&464- .4 770tin",
"4----.4-4-.444o-46-&44444 446444446444=:7tjjh",
"&44&-- --- 44-- 44-446&---&-44 -&O.  5=>7tMC,",
"-------444.-44.&4 664J4644J46&O4444644-170MC.",
"&-4444=4&4O444644.-4-44446444-J 44-466O79tjDU",
"-4-4-4-4-=O4&444444--4O o4444-&-&&4-o4-<70kTE",
"4-&4-- &4--4&&4444& 4&oO&-4446O4&  - 46:%9jkg",
"44- --.&O4--4444444-44--44O44-O &&O-44477yjs4",
"-4-444.4---O444- 4444 -o446-44O.4-444-4%7tkUg",
"---44&--4-4 O--- -4&4 444- -4644-444-4-%7tDEf",
"--&-&- -4-4 O.44 4--44444---4-4 4- 4--4%70kIZ",
"-4-O-- O-&-.-O&4 44-444O44 -44-&-- 4O44%70kVf",
"--O.-4 ----.-4-4 4-44.---44---4&4- .444:7tZYB",
".&-- 4.-4--.4--&&4----4-.&-4- 4 4- .= -7kGEZO",
" --O--4 &--4O..-& -&44444444- -4,&=-4-4F!~n-5",
" --&---&4&----O-&4--4&.4-4-44&4 4&4- 65~Eb ,4",
" ---&--4-&O&.&&--4--&- &  -&4 - ,O&4O44q-.o46"
};
