/* XPM */
static char *result[] = {
/* columns rows colors chars-per-pixel */
"45 45 81 1 ",
"  c #0B0B0B",
". c #141414",
"X c #141C15",
"o c #181817",
"O c #1B1B1B",
"+ c #172116",
"@ c #1C231C",
"# c #1D281C",
"$ c #20261E",
"% c #1E3B21",
"& c #222222",
"* c #222B22",
"= c #282827",
"- c #292929",
"; c #2B3524",
": c #213E22",
"> c #2A3C22",
", c #2D322B",
"< c #2D392D",
"1 c #313320",
"2 c #30352E",
"3 c #34392F",
"4 c #333333",
"5 c #343B33",
"6 c #3C3D3C",
"7 c #254224",
"8 c #294526",
"9 c #2A4927",
"0 c #2D4C28",
"q c #36432F",
"w c #39472E",
"e c #324E2A",
"r c #3A4D2D",
"t c #2F512A",
"y c #32532B",
"u c #3D522F",
"i c #36592D",
"p c #395B2F",
"a c #364430",
"s c #3A4433",
"d c #374F31",
"f c #3D4C34",
"g c #3D4338",
"h c #3D5331",
"j c #3C5B31",
"k c #3F6232",
"l c #404E37",
"z c #454F3C",
"x c #425333",
"c c #425934",
"v c #495C36",
"b c #46513A",
"n c #465B39",
"m c #4A5C3D",
"M c #446535",
"N c #486036",
"B c #456935",
"V c #496B37",
"C c #4D643C",
"Z c #4C6B3A",
"A c #50663D",
"S c #536B3F",
"D c #4D723A",
"F c #52753D",
"G c #55793F",
"H c #587E3F",
"J c gray26",
"K c #506140",
"L c #566C41",
"P c #586E42",
"I c #577541",
"U c #5C7544",
"Y c #577B40",
"T c #5B7C42",
"R c #637F47",
"E c #5C8042",
"W c #628246",
"Q c #658748",
"! c #658848",
"~ c #698A4A",
"^ c #6C914B",
/* pixels */
"44O.2q4,o4&O4 = 4&-  o -&--4--&&.&o&-4--&--- ",
"44 bW^44 44&4 4&-4-4-4.&4---&-O--=-&4&---&-- ",
"4-v!QF444=-&-4- -44444444&- &-o.o4--& ---o-- ",
"@ZEGk>4 -. -4 4 44-&.-4-4--4&&--4.--4=.4 --&.",
"MYVt7%,44. -4&4-&44-4--.-44- 4444.=--- 44..--",
"fVk07:4,O4 --&-44- 44O444=44 4-o-.=&-o --O-4-",
"ZYk0>:4--4 -4 4-4---44444-&4 44.O 4-4= -&&&--",
"fTDt7%;4-44-=44J4- -444 4-44 --4o 4-4=-=44-4-",
"gUk07%2-444-4.O46-444o- 444- -444O-&44.44444-",
"2sjt774444O&& O-44o44--44-4444444--4O&.4- &44",
"gkj9%:65 -  &4O4444-&Oo&4 &444--&4---& ---&--",
"EEk07<-4.-,&&-&-6464. o44=444444&4O-444--444-",
"UDpy98O664-44 J-44446444-4-.444644O-&--444-4&",
".CB071-6444444O-46644466466 -&.44-.444-------",
"<CMt7>=4  .O&= 46-&---=444-64 --44 -4- &4&44&",
"pjpt7:=444446444644 44444&-44-.444o---4o--=44",
"ndy0:7 4. -464O-664 46446 -664444-o-44444-4-4",
"5ZB97%4,4-OO46O444-444644-44&6.-4-O&4&4-444-&",
"mMky99 -64 &o--44446 . 44.4464&444&444444444-",
"bIk07; 44464&444446464&4644-44644--4-6-4- --4",
"xLMy<; 4 OO&. -444--6664&.4 4- --&44444446444",
"~Dj0%% 5OO.O646-644444444 444---&-444-444-444",
"U8yt<%.6 4.6-4 -444&64444O444----4&-444--4&4-",
"UUj9%% 666.4O4.4466 44464.-4444-&&46444=4&=-4",
"gZB07% 246 J4 OJ6-&--4.64 4444446446--6444-44",
"WZky07 644 46JO4446644446 4  -464--44&O--&4-4",
"KZC07% 446OJ&&&4446&66664 444--O-4.64444-6444",
"~Rkt7%o6-.4464OJ-44-46446 -4-4--&- 4444O-4.--",
"^Fkt9: -46666446-6O-64464 =4644.44.6-4---4&O=",
"Lki0:7 466 .&O 4446444444 4646644- 46 44-4 -4",
"gIB0:: 64O6.4444J66-4&444 46466---.64 44O4O-4",
"EDky9< 64O-4J64644O.64464464464444 -4444444-4",
"CEk07% 66266444644-4&&.-646 --&--4 4444 444-4",
"C!Dt7% 464444446444 -64-66466444J4 44-4 -644-",
"HEB07:.646O44 466444 --44J4-4444.4 444.64-444",
"^Bpt77 446-J -6J446644&-6646444,&= 4,44-464-4",
"^Ek0%% 46-444&46=4566O46444J464=44 444.44O.44",
"EFkt77 6 -O,4-64444-4&6 465 ---*&= 644O, -,4=",
"ZFZj07X<4-*&$.=<*5$,55<X55<X*5<54<#<<*@<@qd<4",
"a!Y0%77%:7%>81::779>;%7%>8%%::7<%%:7%:79ikLa4",
"-IQB888879%807887708889770890770999979iyBkk0<",
"osTGiy0ity0tiiiityitityeiiiiityiyiiytikBIkp75",
"$.fHDkMFBpjVMMMjyBMBVMeNBBZZBpZMVHDkZVBDDjj>6",
",4,cFMFGPsjTFdbjunNACGrUNFCWEVCFYYEYEYIEInB,6",
"464&hfcsg=5NmO<ds4fslLAlgvzLSr3vabySPKKChgf-4"
};
